!!!!SEGMENT: pl-cz--iii-671--001-007_scigalski-franciszek--missa-in-es-agnus-dei.krn
!!!cenid: 18xx:1123
!!!COM: Ścigalski, Franciszek
!!!COM-rismid: pe30002948
!!!CDT: 1782/01/29-1846/09/27
!!!CNT: Polish
!!!OPR: Missa in Es
!!!OTL: Agnus Dei
!!!OMV: 007
!!!PDT:
!!!AGN: Sacred; Mass
!!!SMS-siglum: PL-CZ
!!!SMS-shelfmark: III-671
!!!SMS-shelfwork: 001-007 M
!!!SMS-variant:
!!!SMS-altvar:
!!!NIFC-rismid: 300001315
!!!URL-scan: http://repozytorium.nifc.pl/skany/pl-cz-nut--iii-671
!!!ONB-nifc: UWAGA: części Mszy: Kyrie, Gloria, Quoniam, Patrem, Sanctus, Benedictus, Agnus Dei
!!!key: E-
**kern	**dynam	**kern	**dynam	**kern	**dynam	**kern	**dynam	**kern	**text	**kern	**text	**kern	**text	**kern	**text	**dynam	**kern	**dynam	**kern	**dynam	**kern	**kern	**kern	**kern	**dynam
*	*	*group4	*	*group4	*	*group4	*	*group3	*	*group3	*	*group3	*	*group3	*	*	*group2	*	*group2	*	*group1	*group1	*group1	*group1	*
*part14	*part14	*part13	*part13	*part12	*part12	*part11	*part11	*part10	*part10	*part9	*part9	*part8	*part8	*part7	*part7	*part7	*part6	*part6	*part5	*part5	*part4	*part3	*part2	*part1	*part1
*staff14	*	*staff13	*	*staff12	*	*staff11	*	*staff10	*staff10	*staff9	*staff9	*staff8	*staff8	*staff7	*staff7	*	*staff6	*	*staff5	*	*staff4	*staff3	*staff2	*staff1	*
*I"Organo.	*	*I"Viola.	*	*I"Violino Secundo	*	*I"Violino Primo	*	*I"Baſso	*	*I"Tenore.	*	*I"Alto	*	*I"Canto	*	*	*I"Cornu Secundo Dis	*	*I"Cornu Primo in Dis	*	*I"Clarinetto Secundo	*I"Clarinetto. Primo	*I"Fluto/Oboe Secondo	*I"Flauto Primo Obligatto	*
*I'org	*	*I'vla	*	*I'vl 2	*	*I'vl 1	*	*I'B	*	*I'T	*	*I'A	*	*I'S	*	*	*I'cor 2 in Dis	*	*I'cor 1 in Dis	*	*I'cl 2	*I'cl 1	*I'fl 2	*I'fl 1	*
*Iorgan	*	*Iviola	*	*Ivioln	*	*Ivioln	*	*Ibass	*	*Itenor	*	*Ialto	*	*Isoprn	*	*	*Icor	*	*Icor	*	*Iclars	*Iclars	*Iflt	*Iflt	*
*ICklav	*	*ICstr	*	*ICstr	*	*ICstr	*	*ICvox	*	*ICvox	*	*ICvox	*	*ICvox	*	*	*ICbras	*	*ICbras	*	*ICww	*ICww	*ICww	*ICww	*
*IGcont	*	*	*	*	*	*	*	*IGcoro	*	*IGcoro	*	*IGcoro	*	*IGcoro	*	*	*	*	*	*	*	*	*	*	*
*clefF4	*	*clefC3	*	*clefG2	*	*clefG2	*	*clefF4	*	*clefC4	*	*clefC3	*	*clefC1	*	*	*clefG2	*	*clefG2	*	*clefG2	*clefG2	*clefG2	*clefG2	*
*	*	*	*	*	*	*	*	*	*	*	*	*	*	*	*	*	*ITrd-2c-3	*	*ITrd-2c-3	*	*ITrd1c2	*ITrd1c2	*	*	*
*k[b-e-a-]	*	*k[a-e-b-]	*	*k[b-e-a-]	*	*k[b-e-a-]	*	*k[b-e-a-]	*	*k[b-e-a-]	*	*k[b-e-a-]	*	*k[b-e-a-]	*	*	*k[b-e-a-]	*	*k[b-e-a-]	*	*k[b-e-]	*k[b-e-a-]	*k[a-b-e-]	*k[b-e-a-]	*
*E-:	*	*E-:	*	*E-:	*	*E-:	*	*E-:	*	*E-:	*	*E-:	*	*E-:	*	*	*	*	*	*	*E-:	*E-:	*E-:	*E-:	*
*M2/2	*	*M2/2	*	*M2/2	*	*M2/2	*	*M2/2	*	*M2/2	*	*M2/2	*	*M2/2	*	*	*M2/2	*	*M2/2	*	*M2/2	*M2/2	*M2/2	*M2/2	*
*met(c|)	*	*met(c|)	*	*met(c|)	*	*met(c|)	*	*met(c|)	*	*met(c|)	*	*met(c|)	*	*met(c|)	*	*	*met(c|)	*	*met(c|)	*	*met(c)	*met(c|)	*met(c)	*met(c)	*
=1	=1	=1	=1	=1	=1	=1	=1	=1	=1	=1	=1	=1	=1	=1	=1	=1	=1	=1	=1	=1	=1	=1	=1	=1	=1
*	*	*2\right	*	*	*	*	*	*	*	*	*	*	*	*	*	*	*	*	*	*	*	*	*	*	*
!LO:TX:a:i:t=Solo	!	!	!	!	!	!	!	!	!	!	!	!	!	!	!	!	!	!	!	!	!	!	!	!	!
!	!	!	!	!	!	!	!	!	!	!LO:TX:a:t=12	!	!LO:TX:a:t=12	!	!LO:TX:a:t=12:color=grey	!	!	!LO:TX:a:t=12	!	!LO:TX:a:t=4	!	!	!LO:TX:a:t=12	!LO:TX:a:t=12	!LO:TX:a:t=4	!
!LO:TX:a:i:rj:t=Andante	!	!LO:TX:a:rj:t=Andante	!	!LO:TX:a:rj:t=Andante	!	!LO:TX:a:rj:t=Andante	!LO:DY:t=for	!LO:TX:a:rj:t=And	!	!LO:TX:a:rj:t=And&colon;	!	!LO:TX:a:rj:t=Andan	!	!LO:TX:a:rj:t=Andan	!	!	!	!	!	!	!LO:TX:t=P:problem:brak bemola przy kluczu	!	!	!LO:TX:a:rj:t=Andante	!
2C|/	.	2c\	.	2c/	.	2c/	f	00r	.	00r	.	00r	.	00r	.	.	00r	.	00r	.	00r	00r	00r	00r	.
*2\right	*	*	*	*	*	*	*	*	*	*	*	*	*	*	*	*	*	*	*	*	*	*	*	*	*
2E-|\	.	2e-\	.	2e-/	.	2e-/	.	.	.	.	.	.	.	.	.	.	.	.	.	.	.	.	.	.	.
=2	=2	=2	=2	=2	=2	=2	=2	=2	=2	=2	=2	=2	=2	=2	=2	=2	=2	=2	=2	=2	=2	=2	=2	=2	=2
2G|\	.	2g\	.	2g/	.	2g/	.	.	.	.	.	.	.	.	.	.	.	.	.	.	.	.	.	.	.
4r	.	4r	.	4r	.	4r	.	.	.	.	.	.	.	.	.	.	.	.	.	.	.	.	.	.	.
4G|\	.	4G/	.	4g/	.	4g/	.	.	.	.	.	.	.	.	.	.	.	.	.	.	.	.	.	.	.
=3	=3	=3	=3	=3	=3	=3	=3	=3	=3	=3	=3	=3	=3	=3	=3	=3	=3	=3	=3	=3	=3	=3	=3	=3	=3
(4A-X\	.	(4A-X/	.	(4a-X/	.	(4a-/	.	.	.	.	.	.	.	.	.	.	.	.	.	.	.	.	.	.	.
8G|\)	.	8G/)	.	8g/)	.	8g/)	.	.	.	.	.	.	.	.	.	.	.	.	.	.	.	.	.	.	.
8r	.	8r	.	8r	.	8r	.	.	.	.	.	.	.	.	.	.	.	.	.	.	.	.	.	.	.
(4A-\	.	4A-/	.	(4a-/	.	(4a-/	.	.	.	.	.	.	.	.	.	.	.	.	.	.	.	.	.	.	.
8G|\)	.	8G/	.	8g/)	.	8g/)	.	.	.	.	.	.	.	.	.	.	.	.	.	.	.	.	.	.	.
8r	.	8r	.	8r	.	8r	.	.	.	.	.	.	.	.	.	.	.	.	.	.	.	.	.	.	.
=4	=4	=4	=4	=4	=4	=4	=4	=4	=4	=4	=4	=4	=4	=4	=4	=4	=4	=4	=4	=4	=4	=4	=4	=4	=4
4BBn|/	.	4Bn/	.	4Bn/	.	4Bn/	.	.	.	.	.	.	.	.	.	.	.	.	.	.	.	.	.	.	.
4BB|/	.	4B/	.	4B/	.	4B/	.	.	.	.	.	.	.	.	.	.	.	.	.	.	.	.	.	.	.
!	!	!	!	!	!	!	!LO:DY:a:t=pio	!	!	!	!	!	!	!	!	!	!	!	!	!	!	!	!	!	!
4r	.	4r	.	8d/L	.	(8f/L	p	.	.	.	.	.	.	.	.	.	.	.	.	.	.	.	.	.	.
.	.	.	.	(8f/	.	8a-/	.	.	.	.	.	.	.	.	.	.	.	.	.	.	.	.	.	.	.
4BB-X/	.	4B/	.	8e-/)	.	8g/	.	.	.	.	.	.	.	.	.	.	.	.	.	.	.	.	.	.	.
.	.	.	.	8d/J	.	8f/J)	.	.	.	.	.	.	.	.	.	.	.	.	.	.	.	.	.	.	.
=5	=5	=5	=5	=5	=5	=5	=5	=5	=5	=5	=5	=5	=5	=5	=5	=5	=5	=5	=5	=5	=5	=5	=5	=5	=5
*	*	*	*	*	*	*^	*	*	*	*	*	*	*	*	*	*	*	*	*	*	*	*	*	*	*
*	*	*	*	*	*	*	*cue	*	*	*	*	*	*	*	*	*	*	*	*	*2\right	*	*	*	*	*2\right	*
!	!LO:DY:t=pio	!	!	!	!	!	!	!	!	!	!	!	!	!	!	!	!	!	!	!	!	!	!	!	!LO:TX:a:i:t=Solo:rj	!
4E-\	p	4c\	.	4r	.	4rg	2gg/	.	00r	.	00r	.	00r	.	00r	.	.	00r	.	2.gg\	.	00r	00r	00r	2.gg\	.
4r	.	4r	.	4c/	.	4g/	.	.	.	.	.	.	.	.	.	.	.	.	.	.	.	.	.	.	.	.
2r	.	2r	.	4c/	.	4g/	4ccc/	.	.	.	.	.	.	.	.	.	.	.	.	.	.	.	.	.	.	.
!	!	!	!	!	!	!	!	!	!	!	!	!	!	!	!	!	!	!	!	!LO:TX:a:i:t=Solo	!	!	!	!	!	!
.	.	.	.	4c/	.	4g/	4ccc\yy	.	.	.	.	.	.	.	.	.	.	.	.	4ccc\	.	.	.	.	4ccc\	.
=6	=6	=6	=6	=6	=6	=6	=6	=6	=6	=6	=6	=6	=6	=6	=6	=6	=6	=6	=6	=6	=6	=6	=6	=6	=6	=6
!	!	!LO:TX:a:t=6	!	!	!	!	!	!	!	!	!	!	!	!	!	!	!	!	!	!	!	!	!	!	!	!
4E-\	.	00r	.	4r	.	4rg	2.ccc/	.	.	.	.	.	.	.	.	.	.	.	.	2.ccc\	.	.	.	.	2.ccc\	.
4r	.	.	.	4c/	.	4g/	.	.	.	.	.	.	.	.	.	.	.	.	.	.	.	.	.	.	.	.
2r	.	.	.	4c/	.	4g/	.	.	.	.	.	.	.	.	.	.	.	.	.	.	.	.	.	.	.	.
.	.	.	.	4c/	.	4g/	4gg/	.	.	.	.	.	.	.	.	.	.	.	.	4gg\	.	.	.	.	4gg\	.
=7	=7	=7	=7	=7	=7	=7	=7	=7	=7	=7	=7	=7	=7	=7	=7	=7	=7	=7	=7	=7	=7	=7	=7	=7	=7	=7
4D\	.	.	.	4r	.	4rg	2.ff/	.	.	.	.	.	.	.	.	.	.	.	.	2.ff\	.	.	.	.	2.ff\	.
4r	.	.	.	4c/	.	4f/	.	.	.	.	.	.	.	.	.	.	.	.	.	.	.	.	.	.	.	.
4BBn/	.	.	.	4Bn/	.	4f/	.	.	.	.	.	.	.	.	.	.	.	.	.	.	.	.	.	.	.	.
*	*	*	*	*	*	*	*Xtuplet	*	*	*	*	*	*	*	*	*	*	*	*	*Xtuplet	*	*	*	*	*Xtuplet	*
!	!	!	!	!	!	!	!	!	!	!	!	!	!	!	!	!	!	!	!	!LO:TUP:a:problem:klamra łukowa	!	!	!	!	!LO:TUP:a:problem:klamra łukowa	!
4r	.	.	.	4B/	.	4f/	12aa-/L	.	.	.	.	.	.	.	.	.	.	.	.	12aa-\L	.	.	.	.	12aa-\L	.
.	.	.	.	.	.	.	12gg/	.	.	.	.	.	.	.	.	.	.	.	.	12gg\	.	.	.	.	12gg\	.
.	.	.	.	.	.	.	12ff/J	.	.	.	.	.	.	.	.	.	.	.	.	12ff\J	.	.	.	.	12ff\J	.
!LO:LB:g=original	!	!	!	!LO:LB:g=original	!	!	!	!	!	!	!	!	!	!	!	!	!	!	!	!	!	!	!	!	!	!
=8	=8	=8	=8	=8	=8	=8	=8	=8	=8	=8	=8	=8	=8	=8	=8	=8	=8	=8	=8	=8	=8	=8	=8	=8	=8	=8
4r	.	.	.	4r	.	4rg	4ff/	.	.	.	.	.	.	.	.	.	.	.	.	4ff\	.	.	.	.	4ff\	.
4C/	.	.	.	4G/	.	4e-/	4ee-/	.	.	.	.	.	.	.	.	.	.	.	.	4ee-\	.	.	.	.	4ee-\	.
4C/	.	.	.	4G/	.	4e-/	4rgg	.	.	.	.	.	.	.	.	.	.	.	.	4r	.	.	.	.	4r	.
4r	.	.	.	4r	.	4rg	4gg/	.	.	.	.	.	.	.	.	.	.	.	.	4gg\	.	.	.	.	4gg\	.
=9	=9	=9	=9	=9	=9	=9	=9	=9	=9	=9	=9	=9	=9	=9	=9	=9	=9	=9	=9	=9	=9	=9	=9	=9	=9	=9
!LO:TX:t=e	!	!	!	!	!	!	!	!	!	!	!	!	!	!	!	!	!	!	!	!	!	!	!	!	!	!
4E-\	.	.	.	4r	.	4rg	2.ccc/	.	00r	.	00r	.	00r	.	00r	.	.	00r	.	2.ccc\	.	00r	00r	00r	2.ccc\	.
4r	.	.	.	4c/	.	4g/	.	.	.	.	.	.	.	.	.	.	.	.	.	.	.	.	.	.	.	.
2r	.	.	.	4c/	.	4g/	.	.	.	.	.	.	.	.	.	.	.	.	.	.	.	.	.	.	.	.
.	.	.	.	4c/	.	4g/	4gg/	.	.	.	.	.	.	.	.	.	.	.	.	4gg\	.	.	.	.	4gg\	.
!	!	!	!	!	!	!LO:LB:g=original	!LO:LB:g=original	!	!	!	!	!	!	!	!	!	!	!	!	!	!	!	!	!	!	!
=10	=10	=10	=10	=10	=10	=10	=10	=10	=10	=10	=10	=10	=10	=10	=10	=10	=10	=10	=10	=10	=10	=10	=10	=10	=10	=10
4F\	.	0r	.	4r	.	4rg	2ccc/	.	.	.	.	.	.	.	.	.	.	.	.	2.ccc\	.	.	.	.	2.ccc\	.
4r	.	.	.	4c/	.	4a-/	.	.	.	.	.	.	.	.	.	.	.	.	.	.	.	.	.	.	.	.
2r	.	.	.	4c/	.	4a-/	4aa-/	.	.	.	.	.	.	.	.	.	.	.	.	.	.	.	.	.	.	.
.	.	.	.	4c/	.	4a-/	4aa-\yy	.	.	.	.	.	.	.	.	.	.	.	.	4aa-\	.	.	.	.	4aa-\	.
=11	=11	=11	=11	=11	=11	=11	=11	=11	=11	=11	=11	=11	=11	=11	=11	=11	=11	=11	=11	=11	=11	=11	=11	=11	=11	=11
!LO:TX:t=e	!	!	!	!	!	!	!	!	!	!	!	!	!	!	!	!	!	!	!	!	!	!	!	!	!	!
4E-\	.	.	.	4r	.	4rg	2gg/	.	.	.	.	.	.	.	.	.	.	.	.	2gg\	.	.	.	.	2gg\	.
4r	.	.	.	4c/	.	4g/	.	.	.	.	.	.	.	.	.	.	.	.	.	.	.	.	.	.	.	.
4F\	.	.	.	4Bn/	.	4f/	4ff/	.	.	.	.	.	.	.	.	.	.	.	.	4ff\	.	.	.	.	4ff\	.
4r	.	.	.	4c/	.	4e-/	4ee-/	.	.	.	.	.	.	.	.	.	.	.	.	4ee-\	.	.	.	.	4ee-\	.
!	!	!	!	!	!	!	!	!	!	!	!	!	!	!	!	!	!	!	!	!	!	!	!	!	!LO:LB:g=original	!
=12	=12	=12	=12	=12	=12	=12	=12	=12	=12	=12	=12	=12	=12	=12	=12	=12	=12	=12	=12	=12	=12	=12	=12	=12	=12	=12
2r	.	2G/	.	4c/	.	4e-/	4ee-/	.	.	.	.	.	.	.	.	.	.	.	.	4ee-\	.	.	.	.	4ee-\	.
.	.	.	.	4Bn/	.	4d/	4dd/	.	.	.	.	.	.	.	.	.	.	.	.	4dd\	.	.	.	.	4dd\	.
*	*	*	*	*	*	*	*Xcue	*	*	*	*	*	*	*	*	*	*	*	*	*	*	*	*	*	*	*
8G|\L	.	(8g\L	.	2r	.	2r	2ryy	.	.	.	.	.	.	.	.	.	.	.	.	2r	.	.	.	.	2r	.
8F|\	.	8f\	.	.	.	.	.	.	.	.	.	.	.	.	.	.	.	.	.	.	.	.	.	.	.	.
8E-|\	.	8e-\	.	.	.	.	.	.	.	.	.	.	.	.	.	.	.	.	.	.	.	.	.	.	.	.
8D|\J	.	8d\J)	.	.	.	.	.	.	.	.	.	.	.	.	.	.	.	.	.	.	.	.	.	.	.	.
*	*	*	*	*	*	*v	*v	*	*	*	*	*	*	*	*	*	*	*	*	*	*	*	*	*	*	*
!	!	!LO:LB:g=original	!	!	!	!	!	!	!	!	!	!	!	!	!	!	!	!	!LO:LB:g=original	!	!	!	!	!	!
=13	=13	=13	=13	=13	=13	=13	=13	=13	=13	=13	=13	=13	=13	=13	=13	=13	=13	=13	=13	=13	=13	=13	=13	=13	=13
!	!	!	!	!	!LO:DY:a:t=pio	!	!LO:DY:a:t=pio	!	!	!	!	!	!	!	!	!	!LO:TX:b:i:t=Dis:color=grey	!	!	!	!	!	!	!	!
2C|/	.	2c\	.	2c/	p	2c/|	p	2C/	A-	1G	A-	1e-	A-	1cc	Ag-	.	1g	.	1ee-	.	1g	1cc	1cc	1ee-	.
*	*	*	*	*	*	*	*	*2\right	*	*	*	*	*	*	*	*	*	*	*	*	*	*	*	*	*
2E-|\	.	2e-\	.	2e-/	.	2e-/|	.	2E-\	.	.	.	.	.	.	.	.	.	.	.	.	.	.	.	.	.
=14	=14	=14	=14	=14	=14	=14	=14	=14	=14	=14	=14	=14	=14	=14	=14	=14	=14	=14	=14	=14	=14	=14	=14	=14	=14
2G\	.	2g\	.	2g/	.	2g/	.	2.G\	-gnus	1c	-gnus	1e-	-gnus	1cc	-nus	.	1g	.	1ee-	.	1g	1cc	1cc	1ee-	.
4r	.	4r	.	4r	.	4r	.	.	.	.	.	.	.	.	.	.	.	.	.	.	.	.	.	.	.
4G\	.	4g\	.	4g/	.	4g/	.	4r	.	.	.	.	.	.	.	.	.	.	.	.	.	.	.	.	.
=15	=15	=15	=15	=15	=15	=15	=15	=15	=15	=15	=15	=15	=15	=15	=15	=15	=15	=15	=15	=15	=15	=15	=15	=15	=15
*	*	*	*	*	*	*	*	*	*	*	*	*	*	*2\right	*	*	*	*	*	*	*	*2\right	*2\right	*	*
!	!	!	!	!	!	!	!	!	!	!	!	!	!	!LO:N:vis=2	!	!	!	!	!	!	!	!	!	!	!
!	!	!	!	!	!	!	!	!	!	!	!	!	!	!	!	!	!LO:TX:a:t=1	!	!LO:TX:a:t=1	!	!	!	!	!LO:TX:a:t=1	!
(4A-X\	.	(4a-\	.	(4a-X/	.	(4a-/	.	(4A-\	De-	1d	De-	(1f	De-	2.bn\	De-	.	1r	.	1r	.	2.f/	2.bX\	2.b#X\	1r	.
8G|\)	.	8g\)	.	8g/)	.	8g/)	.	8G\)	.	.	.	.	.	.	.	.	.	.	.	.	.	.	.	.	.
8r	.	8r	.	8r	.	8r	.	8r	.	.	.	.	.	.	.	.	.	.	.	.	.	.	.	.	.
(4A-\	.	(4a-\	.	(4a-/	.	(4a-/	.	(4A-\	-i	.	.	.	.	.	.	.	.	.	.	.	.	.	.	.	.
8G|\)	.	8g\)	.	8g/)	.	8g/)	.	8G\)	.	.	.	.	.	8cc\	-i	.	.	.	.	.	4g/	4cc\	4cc\	.	.
!	!	!	!	!LO:TX:t=P:problem:brak pauzy	!	!LO:TX:t=P:problem:brak pauzy	!	!	!	!	!	!	!	!	!	!	!	!	!	!	!	!	!	!	!
8r	.	8r	.	8ryy	.	8ryy	.	8r	.	.	.	.	.	8r	.	.	.	.	.	.	.	.	.	.	.
!	!	!	!	!LO:LB:g=original	!	!	!	!	!	!	!	!	!	!	!	!	!	!	!	!	!	!	!	!	!
=16	=16	=16	=16	=16	=16	=16	=16	=16	=16	=16	=16	=16	=16	=16	=16	=16	=16	=16	=16	=16	=16	=16	=16	=16	=16
*	*	*	*	*	*	*	*	*	*	*2\right	*	*2\right	*	*	*	*	*2\right	*	*	*	*2\right	*	*	*	*
!	!	!	!	!	!	!	!	!	!	!	!	!	!	!	!	!	!	!	!	!	!LO:SIC:v:s=2a-\	!	!	!	!
4BBn/	.	4Bn/	.	4Bn/	.	4Bn/	.	2BBn/	i	2f\	-i	2a-X\)	.	2dd\	De-	.	2ff\	.	2aa-\	.	2a\	2dd\	2dd\	2aa-\	.
4BB/	.	4B/	.	4B/	.	4B/	.	.	.	.	.	.	.	.	.	.	.	.	.	.	.	.	.	.	.
4r	.	4r	.	(8d/L	.	(8f/L	.	2Bn\	qui	(4e-\	qui	4g\	-i	4dd\	-i	.	4ee-\	.	4gg\	.	4g/	4dd\	4dd\	4gg\	.
.	.	.	.	8f/	.	8a-/	.	.	.	.	.	.	.	.	.	.	.	.	.	.	.	.	.	.	.
4BB/	.	4B/	.	8e-/)	.	8g/)	.	.	.	4d\)	.	4f\	qui	4dd\	qui	.	4b-/	.	4ff\	.	4f/	4dd\	4dd\	4ff\	.
.	.	.	.	8d/J	.	8f/J	.	.	.	.	.	.	.	.	.	.	.	.	.	.	.	.	.	.	.
!LO:LB:g=original	!	!	!	!	!	!	!	!	!	!	!	!	!	!	!	!	!	!	!	!	!	!	!	!	!
=17	=17	=17	=17	=17	=17	=17	=17	=17	=17	=17	=17	=17	=17	=17	=17	=17	=17	=17	=17	=17	=17	=17	=17	=17	=17
4C/	.	4c/	.	4c/	.	(4e-/	.	4c\	tol-	4c\	tol-	4e-\	tol-	4cc\	tol-	.	4g/	.	4ee-\	.	4e-/	4cc\	4cc\	4ee-\	.
!LO:TX:a:i:t=Tut&colon;	!	!	!	!	!	!	!	!	!	!	!	!	!	!	!	!	!	!	!	!	!	!	!	!	!
4r	.	4G/	.	4Bn/	.	4d/)	.	4G\	-lis	4g\	-lis	4d\	-lis	4bn\	-lis	.	4g/	.	4gg\	.	4d/	4bX\	4b#X\	4gg\	.
2r	.	2r	.	2r	.	8d/L	.	2r	.	2r	.	2r	.	2r	.	.	2r	.	2r	.	2r	2r	2r	2r	.
.	.	.	.	.	.	8g/	.	.	.	.	.	.	.	.	.	.	.	.	.	.	.	.	.	.	.
.	.	.	.	.	.	8bn/	.	.	.	.	.	.	.	.	.	.	.	.	.	.	.	.	.	.	.
.	.	.	.	.	.	8cc/J	.	.	.	.	.	.	.	.	.	.	.	.	.	.	.	.	.	.	.
=18	=18	=18	=18	=18	=18	=18	=18	=18	=18	=18	=18	=18	=18	=18	=18	=18	=18	=18	=18	=18	=18	=18	=18	=18	=18
*	*	*	*	*	*	*2\right	*	*	*	*	*	*	*	*	*	*	*	*	*	*	*	*	*	*	*
!LO:TX:t=P:problem:mixed beam	!	!	!LO:DY:a:rj:t=for	!LO:TX:t=P:problem:mixed beam	!LO:DY:a:rj:t=for	!	!LO:DY:a:t=for	!	!	!	!	!	!	!	!	!	!	!	!	!LO:DY:t=for	!	!	!	!	!LO:DY:t=for
(8GG/L	.	4d 4G\	f	(8bn\L	f	2dd\	f	2G\	pec-	1Bn	pec-	1g	pec-	1ddn	pec-	.	1g	.	1gg	f	1g	1dd	1dd	1gg	f
8F#X\)	.	.	.	8d/)	.	.	.	.	.	.	.	.	.	.	.	.	.	.	.	.	.	.	.	.	.
8G'\	.	4r	.	8b'\	.	.	.	.	.	.	.	.	.	.	.	.	.	.	.	.	.	.	.	.	.
8G'\J	.	.	.	8b'\J	.	.	.	.	.	.	.	.	.	.	.	.	.	.	.	.	.	.	.	.	.
!LO:TX:t=P:problem:mixed beam	!	!	!	!LO:TX:t=P:problem:mixed beam	!	!	!	!	!	!	!	!	!	!	!	!	!	!	!	!	!	!	!	!	!
(8GG/L	.	4d 4G\	.	(8bn\L	.	2dd\	.	[2G\	-ca-	.	.	.	.	.	.	.	.	.	.	.	.	.	.	.	.
8F#X\)	.	.	.	8d/)	.	.	.	.	.	.	.	.	.	.	.	.	.	.	.	.	.	.	.	.	.
8G'\	.	4r	.	8b'\	.	.	.	.	.	.	.	.	.	.	.	.	.	.	.	.	.	.	.	.	.
8G'\J	.	.	.	8b'\J	.	.	.	.	.	.	.	.	.	.	.	.	.	.	.	.	.	.	.	.	.
=19	=19	=19	=19	=19	=19	=19	=19	=19	=19	=19	=19	=19	=19	=19	=19	=19	=19	=19	=19	=19	=19	=19	=19	=19	=19
!LO:TX:t=P:problem:mixed beam	!	!	!	!LO:TX:t=P:problem:mixed beam	!	!	!	!	!	!	!	!	!	!	!	!	!	!	!	!	!	!	!	!	!
(8GG/L	.	4e- 4G\	.	(8cc\L	.	2ee-\	.	2G\]	.	2c\	-ca-	2g\	-ca-	2ee-X\	-ca-	.	1g	.	1ee-	.	2g/	2ee-\	2ee-\	1ee-	.
8F#X\)	.	.	.	8e-/)	.	.	.	.	.	.	.	.	.	.	.	.	.	.	.	.	.	.	.	.	.
8G'\	.	4r	.	8cc'\	.	.	.	.	.	.	.	.	.	.	.	.	.	.	.	.	.	.	.	.	.
8G'\J	.	.	.	8cc'\J	.	.	.	.	.	.	.	.	.	.	.	.	.	.	.	.	.	.	.	.	.
!LO:TX:t=P:problem:mixed beam	!	!	!	!LO:TX:t=P:problem:mixed beam	!	!	!	!	!	!	!	!	!	!	!	!	!	!	!	!	!	!	!	!	!
(8GG/L	.	4e- 4G\	.	(8cc\L	.	2cc\	.	2G\	-ta	2c\	-ta	2g\	-ta	2cc\	-ta	.	.	.	.	.	2g/	2ee-\	2ee-\	.	.
8F#X\)	.	.	.	8e-/)	.	.	.	.	.	.	.	.	.	.	.	.	.	.	.	.	.	.	.	.	.
8G'\	.	4r	.	8cc'\	.	.	.	.	.	.	.	.	.	.	.	.	.	.	.	.	.	.	.	.	.
8G'\J	.	.	.	8cc'\J	.	.	.	.	.	.	.	.	.	.	.	.	.	.	.	.	.	.	.	.	.
!	!	!	!	!	!	!	!	!LO:LB:g=original	!	!	!	!	!	!	!	!	!	!	!	!	!	!	!	!	!
=20	=20	=20	=20	=20	=20	=20	=20	=20	=20	=20	=20	=20	=20	=20	=20	=20	=20	=20	=20	=20	=20	=20	=20	=20	=20
!LO:TX:t=P:problem:mixed beam	!	!	!	!	!	!LO:ACC:color=grey	!	!	!	!	!	!	!	!	!	!	!	!	!	!	!	!	!	!	!
(8GG/L	.	4e- 4G\	.	(8b-/L	.	4dd-\	.	1G	mun-	1e-	mun-	1b-	mun-	1dd-X	mun-	.	1g	.	1ee-	.	1b-	2dd-X\	2dd-X\|	1ee-	.
8F#X\)	.	.	.	8e-/)	.	.	.	.	.	.	.	.	.	.	.	.	.	.	.	.	.	.	.	.	.
8G'\	.	4r	.	8b-'/	.	4r	.	.	.	.	.	.	.	.	.	.	.	.	.	.	.	.	.	.	.
8G'\J	.	.	.	8b-'/J	.	.	.	.	.	.	.	.	.	.	.	.	.	.	.	.	.	.	.	.	.
!LO:TX:t=P:problem:mixed beam	!	!	!	!	!	!	!	!	!	!	!	!	!	!	!	!	!	!	!	!	!	!	!	!	!
(8GG/L	.	4e- 4G\	.	(8b-/L	.	4dd-\	.	.	.	.	.	.	.	.	.	.	.	.	.	.	.	2dd-\	2dd-\|	.	.
8F#X\)	.	.	.	8e-/)	.	.	.	.	.	.	.	.	.	.	.	.	.	.	.	.	.	.	.	.	.
8G'\	.	4r	.	8b-'/	.	4r	.	.	.	.	.	.	.	.	.	.	.	.	.	.	.	.	.	.	.
8G'\J	.	.	.	8b-'/J	.	.	.	.	.	.	.	.	.	.	.	.	.	.	.	.	.	.	.	.	.
!	!	!	!	!	!	!LO:LB:g=original	!	!	!	!	!	!	!	!	!	!	!	!	!	!	!	!	!	!	!
=21	=21	=21	=21	=21	=21	=21	=21	=21	=21	=21	=21	=21	=21	=21	=21	=21	=21	=21	=21	=21	=21	=21	=21	=21	=21
!LO:TX:t=P:problem:mixed beam	!	!	!	!	!	!	!	!	!	!	!	!	!	!	!	!	!	!	!	!LO:SIC:v:s=2a-\	!	!	!	!	!
(8AA-/L	.	4e- 4A-\	.	(8a-X/L	.	4cc\	.	1A-X	-di	2c\	-di	2e-\	-di	2cc\	-di	.	2e-/	.	2ee-\	.	2a\	2cc\	2cc'\	2ee-\	.
!	!	!	!	!LO:TX:t=P:problem:korekta	!	!	!	!	!	!	!	!	!	!	!	!	!	!	!	!	!	!	!	!	!
8G\)	.	.	.	8e-X/)	.	.	.	.	.	.	.	.	.	.	.	.	.	.	.	.	.	.	.	.	.
8A-'\	.	4r	.	8c'/	.	4r	.	.	.	.	.	.	.	.	.	.	.	.	.	.	.	.	.	.	.
8A-'\J	.	.	.	8c'/J	.	.	.	.	.	.	.	.	.	.	.	.	.	.	.	.	.	.	.	.	.
!LO:TX:t=P:problem:mixed beam	!	!	!LO:LB:g=original	!	!	!	!	!	!	!	!	!	!	!	!	!	!	!	!	!	!	!	!	!	!
(8AA-/L	.	4d 4A-\	.	(8b-/L	.	4ddn\	.	.	.	2B-\	pec-	2f\	pec-	2ddn\	pec-	.	2b-/	.	2ff\	.	2b-\	2ddn\	2ddn'\	2ff\	.
8G\)	.	.	.	8f/)	.	.	.	.	.	.	.	.	.	.	.	.	.	.	.	.	.	.	.	.	.
8A-'\	.	4r	.	8d'/	.	4r	.	.	.	.	.	.	.	.	.	.	.	.	.	.	.	.	.	.	.
8A-'\J	.	.	.	8d'/J	.	.	.	.	.	.	.	.	.	.	.	.	.	.	.	.	.	.	.	.	.
!LO:LB:g=original	!	!LO:LB:g=original	!	!	!	!	!	!	!	!	!	!LO:LB:g=original	!	!LO:LB:g=original	!	!	!	!	!	!	!LO:LB:g=original	!	!LO:LB:g=original	!	!
=22	=22	=22	=22	=22	=22	=22	=22	=22	=22	=22	=22	=22	=22	=22	=22	=22	=22	=22	=22	=22	=22	=22	=22	=22	=22
!LO:TX:t=P:problem:mixed beam	!	!	!	!	!	!	!	!	!	!	!	!	!	!	!	!	!	!	!	!	!	!	!	!	!
(8GG/L	.	4G/	.	(8b-/L	.	4ee- 4e-\	.	2G\	mi-	(2e-\	-ca-	(2b-\	-ca-	2ee-\	-ca-	.	2g/	.	2ee-\	.	2b-\	1ee-	1ee-	2ee-\	.
8F#X\)	.	.	.	8d/)	.	.	.	.	.	.	.	.	.	.	.	.	.	.	.	.	.	.	.	.	.
8G'\	.	4r	.	8e-'/	.	4r	.	.	.	.	.	.	.	.	.	.	.	.	.	.	.	.	.	.	.
8G'\J	.	.	.	8e-'/J	.	.	.	.	.	.	.	.	.	.	.	.	.	.	.	.	.	.	.	.	.
!LO:TX:t=P:problem:mixed beam	!	!	!	!	!	!	!	!	!	!	!	!	!	!	!	!	!	!	!	!	!	!	!	!	!
(8GG/L	.	4F/	.	8an/L	.	4ee- 4e-\	.	2F\	-se-	2c\)	.	2an\)	.	2ee-\	-ta	.	2ff\	.	2ff\	.	2an\	.	.	2ff\	.
8En\)	.	.	.	8d/	.	.	.	.	.	.	.	.	.	.	.	.	.	.	.	.	.	.	.	.	.
8F#'\	.	4r	.	8e-'/	.	4r	.	.	.	.	.	.	.	.	.	.	.	.	.	.	.	.	.	.	.
8F#'\J	.	.	.	8e-'/J	.	.	.	.	.	.	.	.	.	.	.	.	.	.	.	.	.	.	.	.	.
!	!	!	!	!	!	!	!	!	!	!LO:LB:g=original	!	!	!	!	!	!	!	!	!	!	!	!	!	!	!
=23	=23	=23	=23	=23	=23	=23	=23	=23	=23	=23	=23	=23	=23	=23	=23	=23	=23	=23	=23	=23	=23	=23	=23	=23	=23
4BB-/	.	8B-\L	.	8d/L	.	8dd\L	.	2BB-/	-re-	(2B-\	.	(2f\	-ta	2ddn\	mun-	.	2b-/	.	2ff\	.	2b-\	2dd\	2dd\	2ff\	.
.	.	8b-\	.	8b-/	.	8bb-\	.	.	.	.	.	.	.	.	.	.	.	.	.	.	.	.	.	.	.
4r	.	8f\	.	8f/	.	8ff\	.	.	.	.	.	.	.	.	.	.	.	.	.	.	.	.	.	.	.
.	.	8d\J	.	8d/J	.	8dd\J	.	.	.	.	.	.	.	.	.	.	.	.	.	.	.	.	.	.	.
8B-\L	.	8B-\L	.	8B-/L	.	8b-/L	.	2BB-/	-re	2F/)	-ta	2d\)	.	2b-\	-di	.	2b-/	.	2ff\	.	2d/	2b-\	2b-\	2ff\	.
8Fn\	.	8f\	.	8f/	.	8f/	.	.	.	.	.	.	.	.	.	.	.	.	.	.	.	.	.	.	.
8D\	.	8d\	.	8d/	.	8d/	.	.	.	.	.	.	.	.	.	.	.	.	.	.	.	.	.	.	.
8BB-\J	.	8B-\J	.	8B-/J	.	8B-/J	.	.	.	.	.	.	.	.	.	.	.	.	.	.	.	.	.	.	.
!	!	!	!	!	!	!	!	!	!	!	!	!	!	!	!	!	!LO:LB:g=original	!	!	!	!	!LO:LB:g=original	!	!LO:LB:g=original	!
=24	=24	=24	=24	=24	=24	=24	=24	=24	=24	=24	=24	=24	=24	=24	=24	=24	=24	=24	=24	=24	=24	=24	=24	=24	=24
*	*	*	*	*	*	*	*	*	*ij	*	*	*	*	*	*	*	*	*	*	*	*	*	*	*	*
!	!	!	!	!	!	!	!LO:DY:a:rj:t=for	!	!	!	!	!	!	!	!	!	!	!	!	!	!	!	!	!	!
4BB-/	.	2f\	.	8b- 8d/	.	(8dd\L	f	2A-X\	mi-	2.B-\	mi-	2.f\	mi-	2.dd\	mi-	.	1b-	.	1ff	.	1dd	1ff	1ff	1ff	.
.	.	.	.	4b- 4d/	.	8ff\	.	.	.	.	.	.	.	.	.	.	.	.	.	.	.	.	.	.	.
4BB-/	.	.	.	.	.	8dd\	.	.	.	.	.	.	.	.	.	.	.	.	.	.	.	.	.	.	.
.	.	.	.	4b- 4d/	.	8bb-\J)	.	.	.	.	.	.	.	.	.	.	.	.	.	.	.	.	.	.	.
4B-\	.	2f\	.	.	.	(8dd\L	.	2A-\	-se-	.	.	.	.	.	.	.	.	.	.	.	.	.	.	.	.
.	.	.	.	4ryy	.	8ff\	.	.	.	.	.	.	.	.	.	.	.	.	.	.	.	.	.	.	.
4B-\	.	.	.	.	.	8dd\	.	.	.	4B-\	-se-	4f\	-se-	4dd\	-se-	.	.	.	.	.	.	.	.	.	.
.	.	.	.	8b- 8d/	.	8bb-\J)	.	.	.	.	.	.	.	.	.	.	.	.	.	.	.	.	.	.	.
=25	=25	=25	=25	=25	=25	=25	=25	=25	=25	=25	=25	=25	=25	=25	=25	=25	=25	=25	=25	=25	=25	=25	=25	=25	=25
4A-X\	.	2f 2G\	.	8b- 8d/	.	(8dd\L	.	2A-\	-re-	2B-\	-re-	2f\	-re-	2dd\	-re-	.	1b-	.	1ff	.	1dd	1ff	1ff	1ff	.
.	.	.	.	4b- 4d/	.	8ff\	.	.	.	.	.	.	.	.	.	.	.	.	.	.	.	.	.	.	.
4A-\	.	.	.	.	.	8dd\	.	.	.	.	.	.	.	.	.	.	.	.	.	.	.	.	.	.	.
.	.	.	.	4b- 4d/	.	8bb-\J)	.	.	.	.	.	.	.	.	.	.	.	.	.	.	.	.	.	.	.
4A-\	.	2f 2G\	.	.	.	(8dd\L	.	2A-\	-re	2B-\	-re	2f\	-re	2dd\	-re	.	.	.	.	.	.	.	.	.	.
*	*	*	*	*	*	*	*	*	*Xij	*	*	*	*	*	*	*	*	*	*	*	*	*	*	*	*
!	!	!	!	!LO:N:vis=8.	!	!	!	!	!	!	!	!	!	!	!	!	!	!	!	!	!	!	!	!	!
.	.	.	.	4b- 4d/	.	8ff\	.	.	.	.	.	.	.	.	.	.	.	.	.	.	.	.	.	.	.
4A-\	.	.	.	.	.	8dd\	.	.	.	.	.	.	.	.	.	.	.	.	.	.	.	.	.	.	.
.	.	.	.	8b- 8d/	.	8bb-\J)	.	.	.	.	.	.	.	.	.	.	.	.	.	.	.	.	.	.	.
!	!	!	!	!	!	!	!	!	!	!	!	!	!	!	!	!	!	!	!LO:LB:g=original	!	!	!	!	!	!
=26	=26	=26	=26	=26	=26	=26	=26	=26	=26	=26	=26	=26	=26	=26	=26	=26	=26	=26	=26	=26	=26	=26	=26	=26	=26
*	*	*	*	*	*	*	*	*	*	*	*	*	*ij	*	*	*	*	*	*	*	*	*	*	*	*
4G\	.	4G/	.	8b- 8e-/	.	(8b-\L	.	2G\	mi-	2e-\	mi-	2b-\	mi-	2ee-\	mi-	.	1g	.	1ee-	.	1ee-	1gg	1gg	1ee-	.
.	.	.	.	4b- 4e-/	.	8ee-\	.	.	.	.	.	.	.	.	.	.	.	.	.	.	.	.	.	.	.
4G\	.	4g\	.	.	.	8b-\	.	.	.	.	.	.	.	.	.	.	.	.	.	.	.	.	.	.	.
.	.	.	.	4b- 4e-/	.	8bb-\J)	.	.	.	.	.	.	.	.	.	.	.	.	.	.	.	.	.	.	.
4G\	.	4G/	.	.	.	(8b-\L	.	2G\	-se-	2e-\	-se-	2b-\	-se-	2ee-\	-se-	.	.	.	.	.	.	.	.	.	.
.	.	.	.	4b- 4e-/	.	8ee-\	.	.	.	.	.	.	.	.	.	.	.	.	.	.	.	.	.	.	.
4G\	.	4g\	.	.	.	8b-\	.	.	.	.	.	.	.	.	.	.	.	.	.	.	.	.	.	.	.
.	.	.	.	8b- 8e-/	.	8bb-\J)	.	.	.	.	.	.	.	.	.	.	.	.	.	.	.	.	.	.	.
!	!	!	!	!LO:LB:g=original	!	!	!	!	!	!	!	!	!	!	!	!	!	!	!	!	!	!	!	!	!
=27	=27	=27	=27	=27	=27	=27	=27	=27	=27	=27	=27	=27	=27	=27	=27	=27	=27	=27	=27	=27	=27	=27	=27	=27	=27
4D\	.	4d\	.	8b- 8d/	.	(8b-\L	.	2D\	-re-	2B-\	-re-	2a-X\	-re-	2ff\	-re-	.	1b-	.	1ff	.	1ff	1aa-X	1aa-X	1ff	.
.	.	.	.	4b- 4d/	.	8dd\	.	.	.	.	.	.	.	.	.	.	.	.	.	.	.	.	.	.	.
4D\	.	4B-\	.	.	.	8b-\	.	.	.	.	.	.	.	.	.	.	.	.	.	.	.	.	.	.	.
.	.	.	.	4b- 4d/	.	8aa-\J)	.	.	.	.	.	.	.	.	.	.	.	.	.	.	.	.	.	.	.
4D\	.	4d\	.	.	.	(8b-\L	.	2D\	-re	2B-\	-re	2a-\	-re	2ff\	-re	.	.	.	.	.	.	.	.	.	.
*	*	*	*	*	*	*	*	*	*	*	*	*	*Xij	*	*	*	*	*	*	*	*	*	*	*	*
.	.	.	.	4b- 4d/	.	8dd\	.	.	.	.	.	.	.	.	.	.	.	.	.	.	.	.	.	.	.
4D\	.	4B-\	.	.	.	8b-\	.	.	.	.	.	.	.	.	.	.	.	.	.	.	.	.	.	.	.
.	.	.	.	8b- 8d/	.	8aa-\J)	.	.	.	.	.	.	.	.	.	.	.	.	.	.	.	.	.	.	.
=28	=28	=28	=28	=28	=28	=28	=28	=28	=28	=28	=28	=28	=28	=28	=28	=28	=28	=28	=28	=28	=28	=28	=28	=28	=28
4E-\	.	4e-\	.	8b- 8e-/	.	(8b-\L	.	2E-\	no-	(2e-\	no-	2b-\	no-	2gg\	no-	.	2ee-\	.	2gg\	.	2ee-\	2gg\	2gg\	2gg\	.
.	.	.	.	4b- 4e-/	.	8ee-\	.	.	.	.	.	.	.	.	.	.	.	.	.	.	.	.	.	.	.
4E-\	.	4B-\	.	.	.	8b-\	.	.	.	.	.	.	.	.	.	.	.	.	.	.	.	.	.	.	.
.	.	.	.	8b- 8e-/	.	8gg\J)	.	.	.	.	.	.	.	.	.	.	.	.	.	.	.	.	.	.	.
!	!	!	!	!	!	!LO:LB:g=original	!	!	!	!	!	!	!	!	!	!	!	!	!	!	!	!	!	!	!
4A-\	.	4c\	.	8f/	.	(8a-\L	.	2A-\	.	2c\	.	2a-\	.	2ff\	.	.	2ff\	.	2aa-\	.	2cc\	2ff\	2ff\	2aa-\	.
.	.	.	.	4f/	.	8cc\	.	.	.	.	.	.	.	.	.	.	.	.	.	.	.	.	.	.	.
4A-\	.	4A-\	.	.	.	8a-\	.	.	.	.	.	.	.	.	.	.	.	.	.	.	.	.	.	.	.
.	.	.	.	8f/	.	8ff\J)	.	.	.	.	.	.	.	.	.	.	.	.	.	.	.	.	.	.	.
!LO:LB:g=original	!	!	!	!	!	!	!	!	!	!	!	!	!	!	!	!	!	!	!	!	!	!	!	!	!
=29	=29	=29	=29	=29	=29	=29	=29	=29	=29	=29	=29	=29	=29	=29	=29	=29	=29	=29	=29	=29	=29	=29	=29	=29	=29
!LO:TX:t=P:problem:mixed beam	!	!	!	!	!	!	!	!	!	!	!	!	!	!	!	!	!	!	!	!	!	!	!	!	!
8B-\L	.	4B-/	.	8e-/L	.	(8g\L	.	2B-\	.	2B-\	.	2g\	.	2ee-\	.	.	2ee-\	.	2gg\	.	2b-\	2ee-\	2ee-\	2gg\	.
8B-\	.	.	.	8g/	.	8b-\	.	.	.	.	.	.	.	.	.	.	.	.	.	.	.	.	.	.	.
8BB-/	.	4B-/	.	8e-/	.	8g\	.	.	.	.	.	.	.	.	.	.	.	.	.	.	.	.	.	.	.
8BB-/J	.	.	.	8g/J	.	8ee-\J)	.	.	.	.	.	.	.	.	.	.	.	.	.	.	.	.	.	.	.
4BB-/	.	4B-/	.	8e-/L	.	(8f\L	.	2BB-/	[[-bis]]	2A-\)	.	2f\	.	2dd\	.	.	2b-/	.	2ff\	.	2a-X\	2dd\	2dd\	2ff\	.
.	.	.	.	8B-/	.	8b-\	.	.	.	.	.	.	.	.	.	.	.	.	.	.	.	.	.	.	.
!LO:TX:a:i:t=Solo	!	!	!	!	!	!	!	!	!	!	!	!	!	!	!	!	!	!	!	!	!	!	!	!	!
4BB-/	.	4B-/	.	8f/	.	8f\	.	.	.	.	.	.	.	.	.	.	.	.	.	.	.	.	.	.	.
.	.	.	.	8d/J	.	8ee-\J)	.	.	.	.	.	.	.	.	.	.	.	.	.	.	.	.	.	.	.
!	!	!	!	!	!	!	!	!LO:LB:g=original	!	!	!	!	!	!	!	!	!	!	!	!	!	!	!	!	!
=30	=30	=30	=30	=30	=30	=30	=30	=30	=30	=30	=30	=30	=30	=30	=30	=30	=30	=30	=30	=30	=30	=30	=30	=30	=30
!LO:TX:b:i:t=Violono Unison.	!	!	!	!	!	!	!LO:DY:a:t=pio	!	!	!	!	!	!	!	!	!	!	!	!	!	!	!	!	!	!
4.E-\	.	4E-/	.	(8d/L	.	8ee-\L	p	2E-\	-bis	2G/	-bis	2e-\	-bis	2ee-\	-bis	.	4g/	.	4ee-\	.	4b-\	4ee-\	4ee-\	4ee-\	.
.	.	.	.	8g/)	.	8b-'\	.	.	.	.	.	.	.	.	.	.	.	.	.	.	.	.	.	.	.
.	.	4r	.	8g'/	.	8b-'\	.	.	.	.	.	.	.	.	.	.	4r	.	4r	.	4r	4r	4r	4r	.
8e-\	.	.	.	8g'/J	.	8b-'\J	.	.	.	.	.	.	.	.	.	.	.	.	.	.	.	.	.	.	.
*	*	*	*	*	*	*tremolo	*	*	*	*	*	*	*	*	*	*	*	*	*	*	*	*	*	*	*
!LO:TUP:a:problem:klamra łukowa	!	!	!	!	!	!	!	!	!	!	!	!	!	!	!	!	!	!	!	!	!	!	!	!	!
12e-\L	.	4E-/	.	8r	.	8b-\L	.	2r	.	2r	.	2r	.	2r	.	.	2r	.	2r	.	2r	2r	2r	2r	.
12d\	.	.	.	.	.	.	.	.	.	.	.	.	.	.	.	.	.	.	.	.	.	.	.	.	.
.	.	.	.	8g'/L	.	8b-\	.	.	.	.	.	.	.	.	.	.	.	.	.	.	.	.	.	.	.
12c\J	.	.	.	.	.	.	.	.	.	.	.	.	.	.	.	.	.	.	.	.	.	.	.	.	.
!LO:TUP:a:problem:klamra łukowa	!	!	!	!	!	!	!	!	!	!	!	!	!	!	!	!	!	!	!	!	!	!	!	!	!
12B-\L	.	4r	.	8g'/	.	8b-\	.	.	.	.	.	.	.	.	.	.	.	.	.	.	.	.	.	.	.
12A-\	.	.	.	.	.	.	.	.	.	.	.	.	.	.	.	.	.	.	.	.	.	.	.	.	.
.	.	.	.	8g'/J	.	8b-\J	.	.	.	.	.	.	.	.	.	.	.	.	.	.	.	.	.	.	.
12G\J	.	.	.	.	.	.	.	.	.	.	.	.	.	.	.	.	.	.	.	.	.	.	.	.	.
*	*	*	*	*	*	*Xtremolo	*	*	*	*	*	*	*	*	*	*	*	*	*	*	*	*	*	*	*
!	!	!LO:LB:g=original	!	!	!	!	!	!	!	!	!	!	!	!	!	!	!	!	!	!	!	!	!	!	!
=31	=31	=31	=31	=31	=31	=31	=31	=31	=31	=31	=31	=31	=31	=31	=31	=31	=31	=31	=31	=31	=31	=31	=31	=31	=31
!	!	!LO:TX:t=P:problem:mixed beam	!	!	!	!	!	!LO:TX:a:t=4	!	!LO:TX:a:t=4	!	!	!	!LO:TX:a:t=4	!	!	!LO:TX:a:t=4	!	!LO:TX:a:t=4	!	!LO:TX:a:t=4	!LO:TX:a:t=4	!LO:TX:a:t=4	!LO:TX:a:t=4	!
4.D\	.	8D/L	.	8r	.	8r	.	00r	.	00r	.	00r	.	00r	.	.	00r	.	00r	.	00r	00r	00r	00r	.
.	.	8d\	.	8f'/L	.	8b-\L	.	.	.	.	.	.	.	.	.	.	.	.	.	.	.	.	.	.	.
.	.	8d\	.	8f'/	.	8b-\	.	.	.	.	.	.	.	.	.	.	.	.	.	.	.	.	.	.	.
8f\	.	8d\J	.	8f'/J	.	8b-\J	.	.	.	.	.	.	.	.	.	.	.	.	.	.	.	.	.	.	.
!LO:TUP:a:problem:klamra łukowa	!	!LO:TX:t=P:problem:mixed beam	!	!	!	!	!	!	!	!	!	!	!	!	!	!	!	!	!	!	!	!	!	!	!
12f\L	.	8D/L	.	8r	.	8r	.	.	.	.	.	.	.	.	.	.	.	.	.	.	.	.	.	.	.
12e-\	.	.	.	.	.	.	.	.	.	.	.	.	.	.	.	.	.	.	.	.	.	.	.	.	.
.	.	8d\	.	8f'/L	.	8b-\L	.	.	.	.	.	.	.	.	.	.	.	.	.	.	.	.	.	.	.
12d\J	.	.	.	.	.	.	.	.	.	.	.	.	.	.	.	.	.	.	.	.	.	.	.	.	.
!LO:TUP:a:problem:klamra łukowa	!	!	!	!	!	!	!	!	!	!	!	!	!	!	!	!	!	!	!	!	!	!	!	!	!
12c\L	.	8d\	.	8f'/	.	8b-\	.	.	.	.	.	.	.	.	.	.	.	.	.	.	.	.	.	.	.
12B-\	.	.	.	.	.	.	.	.	.	.	.	.	.	.	.	.	.	.	.	.	.	.	.	.	.
.	.	8d\J	.	8f/J	.	8b-\J	.	.	.	.	.	.	.	.	.	.	.	.	.	.	.	.	.	.	.
12A-X\J	.	.	.	.	.	.	.	.	.	.	.	.	.	.	.	.	.	.	.	.	.	.	.	.	.
!	!	!	!	!LO:LB:g=original	!	!	!	!	!	!	!	!	!	!	!	!	!	!	!	!	!	!	!	!	!
=32	=32	=32	=32	=32	=32	=32	=32	=32	=32	=32	=32	=32	=32	=32	=32	=32	=32	=32	=32	=32	=32	=32	=32	=32	=32
8G\L	.	4e-\	.	4e-/	.	4e-/	.	.	.	.	.	.	.	.	.	.	.	.	.	.	.	.	.	.	.
8B-\	.	.	.	.	.	.	.	.	.	.	.	.	.	.	.	.	.	.	.	.	.	.	.	.	.
8B-\	.	4E-/	.	4e-/	.	(8g/L	.	.	.	.	.	.	.	.	.	.	.	.	.	.	.	.	.	.	.
8d-X\J	.	.	.	.	.	8b-/J)	.	.	.	.	.	.	.	.	.	.	.	.	.	.	.	.	.	.	.
8d-\L	.	4E-/	.	4e-/	.	(8b-/L	.	.	.	.	.	.	.	.	.	.	.	.	.	.	.	.	.	.	.
8c\	.	.	.	.	.	8a-/	.	.	.	.	.	.	.	.	.	.	.	.	.	.	.	.	.	.	.
8c\	.	4E-/	.	4e-/	.	8a-/	.	.	.	.	.	.	.	.	.	.	.	.	.	.	.	.	.	.	.
8Bn\J	.	.	.	.	.	8g/J)	.	.	.	.	.	.	.	.	.	.	.	.	.	.	.	.	.	.	.
=33	=33	=33	=33	=33	=33	=33	=33	=33	=33	=33	=33	=33	=33	=33	=33	=33	=33	=33	=33	=33	=33	=33	=33	=33	=33
*	*	*	*	*	*	*tuplet	*	*	*	*	*	*	*	*	*	*	*	*	*	*	*	*	*	*	*
!LO:TUP:a:problem:klamra łukowa	!	!	!	!	!	!LO:TUP:b:problem:klamra łukowa, kropka zamiast numeru	!	!	!	!	!	!	!	!	!	!	!	!	!	!	!	!	!	!	!
12c\L	.	2A-/	.	2c/	.	12a-/L	.	.	.	.	.	.	.	.	.	.	.	.	.	.	.	.	.	.	.
12e-\	.	.	.	.	.	12cc/	.	.	.	.	.	.	.	.	.	.	.	.	.	.	.	.	.	.	.
12d\J	.	.	.	.	.	12b-/J	.	.	.	.	.	.	.	.	.	.	.	.	.	.	.	.	.	.	.
!LO:TUP:a:problem:klamra łukowa	!	!	!	!	!	!LO:TUP:b:problem:klamra łukowa, kropka zamiast numeru	!	!	!	!	!	!	!	!	!	!	!	!	!	!	!	!	!	!	!
12c\L	.	.	.	.	.	12a-/L	.	.	.	.	.	.	.	.	.	.	.	.	.	.	.	.	.	.	.
12B-\	.	.	.	.	.	12g/	.	.	.	.	.	.	.	.	.	.	.	.	.	.	.	.	.	.	.
12A-\J	.	.	.	.	.	12f/J	.	.	.	.	.	.	.	.	.	.	.	.	.	.	.	.	.	.	.
!LO:LB:g=original	!	!	!	!	!	!LO:TUP:b:problem:klamra łukowa, kropka zamiast numeru	!	!	!	!	!	!	!	!	!	!	!	!	!	!	!	!	!	!	!
4B-\	.	4B-/	.	4e-/	.	12g/L	.	.	.	.	.	.	.	.	.	.	.	.	.	.	.	.	.	.	.
.	.	.	.	.	.	12b-/	.	.	.	.	.	.	.	.	.	.	.	.	.	.	.	.	.	.	.
.	.	.	.	.	.	12e-/J	.	.	.	.	.	.	.	.	.	.	.	.	.	.	.	.	.	.	.
*	*	*	*	*	*	*Xtuplet	*	*	*	*	*	*	*	*	*	*	*	*	*	*	*	*	*	*	*
4BB-/	.	4B-/	.	4d/	.	12f/L	.	.	.	.	.	.	.	.	.	.	.	.	.	.	.	.	.	.	.
.	.	.	.	.	.	12a-/	.	.	.	.	.	.	.	.	.	.	.	.	.	.	.	.	.	.	.
.	.	.	.	.	.	12d/J	.	.	.	.	.	.	.	.	.	.	.	.	.	.	.	.	.	.	.
=34	=34	=34	=34	=34	=34	=34	=34	=34	=34	=34	=34	=34	=34	=34	=34	=34	=34	=34	=34	=34	=34	=34	=34	=34	=34
4E-\	.	4e-\	.	4B-/	.	4e-/	.	.	.	.	.	.	.	.	.	.	.	.	.	.	.	.	.	.	.
4E-\	.	4B-/	.	4G/	.	4e-/	.	.	.	.	.	.	.	.	.	.	.	.	.	.	.	.	.	.	.
4E-\	.	4E-/	.	4G/	.	4e-/	.	.	.	.	.	.	.	.	.	.	.	.	.	.	.	.	.	.	.
!	!	!	!	!	!	!	!	!	!	!	!	!	!	!	!	!LO:DY:b	!	!	!	!	!	!	!	!	!
4r	.	4r	.	4r	.	4r	.	.	.	.	.	.	.	.	.	f	.	.	.	.	.	.	.	.	.
!	!	!	!	!	!	!LO:LB:g=original	!	!	!	!	!	!	!	!	!	!	!	!	!	!	!	!	!	!	!
=35	=35	=35	=35	=35	=35	=35	=35	=35	=35	=35	=35	=35	=35	=35	=35	=35	=35	=35	=35	=35	=35	=35	=35	=35	=35
!	!	!	!	!	!	!	!LO:DY:a:t=for	!	!	!	!	!	!	!	!	!	!	!	!	!	!	!	!	!	!
2E-'\	.	2E-/	.	2e-/	.	2e-/	f	1E-	A-	1B-	A-	1g	A-	1ee-	A-	.	1ee-	.	1gg	.	1b-	1ee-	1ee-	1gg	.
2G'\	.	2G/	.	2g/	.	2g/	.	.	.	.	.	.	.	.	.	.	.	.	.	.	.	.	.	.	.
!	!	!	!	!	!	!	!	!	!	!	!	!LO:LB:g=original	!	!	!	!	!	!	!	!	!	!	!	!	!
=36	=36	=36	=36	=36	=36	=36	=36	=36	=36	=36	=36	=36	=36	=36	=36	=36	=36	=36	=36	=36	=36	=36	=36	=36	=36
*	*	*	*	*2\right	*	*	*	*	*	*	*	*	*	*	*	*	*	*	*	*	*	*	*	*	*
2B-'\	.	2B-/	.	2b-\	.	2b-\|	.	1E-	-gnus	1B-	-gnus	1g	-gnus	1ee-	-gnus	.	1ee-	.	1gg	.	1b-	1ee-	1ee-	1gg	.
4r	.	4r	.	4r	.	4r	.	.	.	.	.	.	.	.	.	.	.	.	.	.	.	.	.	.	.
4B-\	.	4B-/	.	4b-\	.	4b-\	.	.	.	.	.	.	.	.	.	.	.	.	.	.	.	.	.	.	.
!	!	!	!	!	!	!	!	!	!	!LO:LB:g=original	!	!	!	!LO:LB:g=original	!	!	!	!	!	!	!	!	!	!	!
=37	=37	=37	=37	=37	=37	=37	=37	=37	=37	=37	=37	=37	=37	=37	=37	=37	=37	=37	=37	=37	=37	=37	=37	=37	=37
(4c-X\	.	(4c-X\	.	(4cc-X\	.	4cc-X\	.	(4c-X\	De-	1f	De-	1a-X	De-	2.dd\	De-	.	1b-	.	1ff	.	2.a-X\	2.dd\	2.dd\	1ff	.
8B-|\)	.	8B-\)	.	8b-\)	.	8b-\	.	8B-\)	.	.	.	.	.	.	.	.	.	.	.	.	.	.	.	.	.
8r	.	8r	.	8r	.	8r	.	8r	.	.	.	.	.	.	.	.	.	.	.	.	.	.	.	.	.
(4c-\	.	4c-\	.	(4cc-\	.	4cc-\	.	(4c-\	-i	.	.	.	.	.	.	.	.	.	.	.	.	.	.	.	.
8B-\)	.	8B-\	.	8b-\)	.	8b-\	.	8B-\)	.	.	.	.	.	4ee-\	.	.	.	.	.	.	4a-\	4ee-\	4ee-\	.	.
8r	.	8r	.	8r	.	8r	.	8r	.	.	.	.	.	.	.	.	.	.	.	.	.	.	.	.	.
!	!	!	!	!	!	!	!	!	!	!	!	!	!	!	!	!	!	!	!	!	!LO:LB:g=original	!	!	!	!
=38	=38	=38	=38	=38	=38	=38	=38	=38	=38	=38	=38	=38	=38	=38	=38	=38	=38	=38	=38	=38	=38	=38	=38	=38	=38
!	!	!	!	!	!	!	!	!	!	!	!	!	!	!	!	!	!	!	!	!	!LO:SIC:v:s=2.a-\	!	!	!	!
4D|\	.	4D/	.	4d/	.	4d/	.	2.D\	qui	2.f\	-i	2.a-\	-i	2.ff\	-i	.	2.b-/	.	2.ff\	.	2.a\	2.ff\	2.ff\	2.ff\	.
4D|\	.	4D/	.	4d/	.	4d/	.	.	.	.	.	.	.	.	.	.	.	.	.	.	.	.	.	.	.
4r	.	4r	.	(8f/L	.	(8a-\L	.	.	.	.	.	.	.	.	.	.	.	.	.	.	.	.	.	.	.
.	.	.	.	8a-/	.	8ccn\	.	.	.	.	.	.	.	.	.	.	.	.	.	.	.	.	.	.	.
!	!	!	!	!	!	!	!	!	!	!	!	!	!	!	!	!	!	!	!	!	!LO:SIC:v:s=4a-\	!	!	!	!
4D\	.	4B-/	.	8g/)	.	8b-\	.	4D\	tol-	4f\	qui	4a-\	qui	4ff\	qui	.	4b-/	.	4ff\	.	4a\	4ff\	4ff\	4ff\	.
.	.	.	.	8f/J	.	8a-\J)	.	.	.	.	.	.	.	.	.	.	.	.	.	.	.	.	.	.	.
!	!	!LO:LB:g=original	!	!	!	!	!	!	!	!	!	!	!	!	!	!	!	!	!	!	!	!	!	!	!
=39	=39	=39	=39	=39	=39	=39	=39	=39	=39	=39	=39	=39	=39	=39	=39	=39	=39	=39	=39	=39	=39	=39	=39	=39	=39
4E-|\	.	4B-/	.	4e-/	.	(4g/	.	4E-\	-lis	4B-\	tol-	4g\	tol-	4ee-\	tol-	.	4ee-\	.	4gg\	.	2g/	4ee-\	4ee-\	4gg\	.
!	!	!	!	!	!	!	!	!LO:TX:t=P:problem:korekta	!	!	!	!	!	!	!	!	!	!	!	!	!	!	!	!	!
4BB-|>/	.	4B-/	.	4d/	.	4f/)	.	4BB-@	.	4B-\	-lis	4f\	-lis	4dd\	-lis	.	4b-/	.	4ff\	.	.	4dd\	4dd\	4ee-\	.
!LO:TX:a:i:t=Tut&colon;	!	!	!	!	!	!	!	!	!	!	!	!	!	!	!	!	!	!	!	!	!	!	!	!	!
2r	.	2r	.	2r	.	8b-/L	.	2r	.	2r	.	2r	.	2r	.	.	2r	.	2r	.	2r	2r	2r	4r	.
.	.	.	.	.	.	8an/	.	.	.	.	.	.	.	.	.	.	.	.	.	.	.	.	.	.	.
.	.	.	.	.	.	8b-/	.	.	.	.	.	.	.	.	.	.	.	.	.	.	.	.	.	4ryy	.
.	.	.	.	.	.	8b-/J	.	.	.	.	.	.	.	.	.	.	.	.	.	.	.	.	.	.	.
!	!	!	!	!LO:LB:g=original	!	!	!	!	!	!	!	!	!	!	!	!	!	!	!	!	!	!	!LO:LB:g=original	!LO:LB:g=original	!
=40	=40	=40	=40	=40	=40	=40	=40	=40	=40	=40	=40	=40	=40	=40	=40	=40	=40	=40	=40	=40	=40	=40	=40	=40	=40
!LO:TX:t=P:problem:mixed beam	!	!	!LO:DY:a:t=for	!	!LO:DY:a:t=for	!	!	!	!	!	!	!	!	!	!	!	!	!	!	!	!	!	!	!	!
(8BB-/L	.	8B-\L	f	8d/	f	8b-\	.	1B-	pec-	1d	pec-	1f	pec-	1b-	pec-	.	1b-	.	1ff	.	1d	1b-	1b-	1ff	.
8An\	.	8d\	.	8r	.	8r	.	.	.	.	.	.	.	.	.	.	.	.	.	.	.	.	.	.	.
8B-\)	.	8f\	.	4r	.	4r	.	.	.	.	.	.	.	.	.	.	.	.	.	.	.	.	.	.	.
8B-|\J	.	8d\J	.	.	.	.	.	.	.	.	.	.	.	.	.	.	.	.	.	.	.	.	.	.	.
!LO:TX:t=P:problem:mixed beam	!	!	!	!	!	!	!	!	!	!	!	!	!	!	!	!	!	!	!	!	!	!	!	!	!
(8BB-|>/L	.	8B-\L	.	8d/	.	8b-\	.	.	.	.	.	.	.	.	.	.	.	.	.	.	.	.	.	.	.
8A\	.	8d\	.	8r	.	8r	.	.	.	.	.	.	.	.	.	.	.	.	.	.	.	.	.	.	.
8B-\)	.	8f\	.	4r	.	4r	.	.	.	.	.	.	.	.	.	.	.	.	.	.	.	.	.	.	.
8B-|\J	.	8d\J	.	.	.	.	.	.	.	.	.	.	.	.	.	.	.	.	.	.	.	.	.	.	.
!LO:LB:g=original	!	!	!	!	!	!	!	!	!	!	!	!	!	!	!	!	!LO:LB:g=original	!	!	!	!	!	!	!	!
=41	=41	=41	=41	=41	=41	=41	=41	=41	=41	=41	=41	=41	=41	=41	=41	=41	=41	=41	=41	=41	=41	=41	=41	=41	=41
!LO:TX:t=P:problem:mixed beam	!	!	!	!	!	!	!	!	!	!	!	!	!	!	!	!	!	!	!	!	!	!	!	!	!
8BB-/L	.	(8B-\L	.	8e-/	.	8cc\	.	2B-\	-ca-	2e-\	-ca-	2an\	-ca-	2cc\	-ca-	.	1b-	.	1bb-	.	2e-/	2cc\	2cc\	1bb-	.
(8An\	.	8c\	.	8r	.	8r	.	.	.	.	.	.	.	.	.	.	.	.	.	.	.	.	.	.	.
8B-\)	.	8e-\	.	4r	.	4r	.	.	.	.	.	.	.	.	.	.	.	.	.	.	.	.	.	.	.
8B-'\J	.	8c\J)	.	.	.	.	.	.	.	.	.	.	.	.	.	.	.	.	.	.	.	.	.	.	.
!LO:TX:t=P:problem:mixed beam	!	!	!	!	!	!	!	!	!	!	!	!	!	!	!	!	!	!	!	!	!	!	!	!	!
8BB-/L	.	(8B-\L	.	8e-/	.	8cc\	.	2B-\	-ta	2e-\	-ta	2a\	-ta	2cc\	-ta	.	.	.	.	.	2e-/	2cc\	2cc\	.	.
(8A\	.	8c\	.	8r	.	8r	.	.	.	.	.	.	.	.	.	.	.	.	.	.	.	.	.	.	.
8B-\)	.	8e-\	.	4r	.	4r	.	.	.	.	.	.	.	.	.	.	.	.	.	.	.	.	.	.	.
8B-'\J	.	8c\J)	.	.	.	.	.	.	.	.	.	.	.	.	.	.	.	.	.	.	.	.	.	.	.
!	!	!	!	!	!	!	!	!	!	!	!	!	!	!	!	!	!	!	!	!	!	!LO:LB:g=original	!	!	!
=42	=42	=42	=42	=42	=42	=42	=42	=42	=42	=42	=42	=42	=42	=42	=42	=42	=42	=42	=42	=42	=42	=42	=42	=42	=42
*	*	*	*	*	*	*	*	*	*ij	*	*ij	*	*ij	*	*	*	*	*	*	*	*	*	*	*	*
!LO:TX:t=P:problem:mixed beam	!	!	!	!	!	!	!	!	!	!	!	!	!	!	!	!	!	!	!	!	!	!	!	!	!
(8BB-/L	.	(8B-\L	.	8a-X/	.	8dd\	.	1B-	pec-	1f	pec-	1a-X	pec-	1ddn	pec-	.	1b-	.	1ff	.	1b-	1dd	1dd	1ff	.
8An\	.	8d\	.	8r	.	8r	.	.	.	.	.	.	.	.	.	.	.	.	.	.	.	.	.	.	.
8B-\)	.	8f\	.	4r	.	4r	.	.	.	.	.	.	.	.	.	.	.	.	.	.	.	.	.	.	.
8B-|\J	.	8d\J)	.	.	.	.	.	.	.	.	.	.	.	.	.	.	.	.	.	.	.	.	.	.	.
!LO:TX:t=P:problem:mixed beam	!	!	!	!	!	!	!	!	!	!	!	!	!	!	!	!	!	!	!	!	!	!	!	!	!
(8BB-/L	.	(8B-\L	.	8a-/	.	8dd\	.	.	.	.	.	.	.	.	.	.	.	.	.	.	.	.	.	.	.
8A\	.	8d\	.	8r	.	8r	.	.	.	.	.	.	.	.	.	.	.	.	.	.	.	.	.	.	.
8B-\)	.	8f\	.	4r	.	4r	.	.	.	.	.	.	.	.	.	.	.	.	.	.	.	.	.	.	.
8B-|\J	.	8d\J)	.	.	.	.	.	.	.	.	.	.	.	.	.	.	.	.	.	.	.	.	.	.	.
!	!	!	!	!	!	!LO:LB:g=original	!	!	!	!	!	!	!	!	!	!	!	!	!LO:LB:g=original	!	!	!	!	!	!
=43	=43	=43	=43	=43	=43	=43	=43	=43	=43	=43	=43	=43	=43	=43	=43	=43	=43	=43	=43	=43	=43	=43	=43	=43	=43
!LO:TX:t=P:problem:mixed beam	!	!	!	!	!	!	!	!	!	!	!	!	!	!	!	!	!	!	!	!	!	!	!	!	!
(8BB-/L	.	(8B-\L	.	8g/	.	8ee-\	.	2B-\	-ca-	2e-\	-ca-	2g\	-ca-	2ee-\	-ca-	.	2ee-\	.	2gg\	.	2g/	2ee-\	2ee-\	2gg\	.
8An\	.	8e-\	.	8r	.	8r	.	.	.	.	.	.	.	.	.	.	.	.	.	.	.	.	.	.	.
8B-\)	.	8g\	.	4r	.	4r	.	.	.	.	.	.	.	.	.	.	.	.	.	.	.	.	.	.	.
8B-\J|	.	8e-\J)	.	.	.	.	.	.	.	.	.	.	.	.	.	.	.	.	.	.	.	.	.	.	.
!LO:TX:t=P:problem:mixed beam	!	!	!	!	!	!	!	!	!	!	!	!	!	!	!	!	!	!	!	!	!	!	!	!	!
(8BB-/L	.	(8B-\L	.	8g/	.	8ee-\	.	2B-\	-ta	2e-\	-ta	2g\	-ta	2ee-\	-ta	.	2ee-\	.	2gg\	.	2g/	2ee-\	2ee-\	2gg\	.
*	*	*	*	*	*	*	*	*	*Xij	*	*Xij	*	*Xij	*	*	*	*	*	*	*	*	*	*	*	*
8A\	.	8e-\	.	8r	.	8r	.	.	.	.	.	.	.	.	.	.	.	.	.	.	.	.	.	.	.
8B-\)	.	8g\	.	4r	.	4r	.	.	.	.	.	.	.	.	.	.	.	.	.	.	.	.	.	.	.
8B-|\J	.	8e-\J)	.	.	.	.	.	.	.	.	.	.	.	.	.	.	.	.	.	.	.	.	.	.	.
!	!	!	!	!	!	!	!	!LO:LB:g=original	!	!	!	!	!	!	!	!	!	!	!	!	!	!	!	!	!
=44	=44	=44	=44	=44	=44	=44	=44	=44	=44	=44	=44	=44	=44	=44	=44	=44	=44	=44	=44	=44	=44	=44	=44	=44	=44
!LO:TX:t=P:problem:mixed beam	!	!	!	!	!	!	!	!	!	!	!	!	!	!	!	!	!	!	!	!	!	!	!	!	!
(8BB-/L	.	(8B-\L	.	8f/	.	8dd\	.	2B-\	mun-	2d\	mun-	2f\	mun-	(2ddn\	mun-	.	2b-/	.	2ff\	.	2f/	2dd\	2dd\	2ff\	.
8An\	.	8d\	.	8r	.	8r	.	.	.	.	.	.	.	.	.	.	.	.	.	.	.	.	.	.	.
8B-\)	.	8f\	.	4r	.	4r	.	.	.	.	.	.	.	.	.	.	.	.	.	.	.	.	.	.	.
8B-\J|	.	8d\J)	.	.	.	.	.	.	.	.	.	.	.	.	.	.	.	.	.	.	.	.	.	.	.
!LO:TX:t=P:problem:mixed beam	!	!LO:LB:g=original	!	!	!	!LO:TX:t=P:problem:korekta	!	!	!	!	!	!	!	!	!	!	!	!	!	!	!	!	!	!	!
!	!	!	!	!	!	!LO:TX:a:t=c:color=grey	!	!	!	!	!	!	!	!	!	!	!	!	!	!	!	!	!	!	!
(8BB-/L	.	(8B-\L	.	8e-/	.	8cc@\	.	2BB-/	.	2c\	.	2e-\	.	2cc\)	.	.	2b-/	.	2gg\	.	2e-/	2cc\	2cc\	2gg\	.
8A\	.	8d\	.	8r	.	8r	.	.	.	.	.	.	.	.	.	.	.	.	.	.	.	.	.	.	.
8B-\)	.	8f\	.	4r	.	4r	.	.	.	.	.	.	.	.	.	.	.	.	.	.	.	.	.	.	.
8B-\J|	.	8d\J)	.	.	.	.	.	.	.	.	.	.	.	.	.	.	.	.	.	.	.	.	.	.	.
=45	=45	=45	=45	=45	=45	=45	=45	=45	=45	=45	=45	=45	=45	=45	=45	=45	=45	=45	=45	=45	=45	=45	=45	=45	=45
!LO:TX:t=P:problem:mixed beam	!	!	!	!	!	!	!	!	!	!LO:TX:t=P:problem:korekta	!	!	!	!	!	!	!	!	!	!	!	!	!	!	!
(8BB-/L	.	(8B-\L	.	8d/	.	8b-\	.	1BB-	.	2d	.	1f	.	2b-\	.	.	2b-/	.	2ff\	.	2d/	2b-\	2b-\	2ff\	.
!LO:SIC:v:s=8An\	!	!	!	!	!	!	!	!	!	!	!	!	!	!	!	!	!	!	!	!	!	!	!	!	!
8A-\	.	8d\	.	8r	.	8r	.	.	.	.	.	.	.	.	.	.	.	.	.	.	.	.	.	.	.
8B-\)	.	8f\	.	4r	.	4r	.	.	.	.	.	.	.	.	.	.	.	.	.	.	.	.	.	.	.
8B-\J|	.	8d\J)	.	.	.	.	.	.	.	.	.	.	.	.	.	.	.	.	.	.	.	.	.	.	.
!LO:TX:t=P:problem:mixed beam	!	!	!	!	!	!LO:ACC:color=grey	!	!	!	!	!	!	!	!	!	!	!	!	!	!	!	!	!	!	!
(8BB-/L	.	8B-\L	.	8c/	.	8an/	.	.	.	2c@	.	.	.	2an\	.	.	2b-/	.	2ee-\	.	2c/	2a\	2an\	2ee-\	.
!LO:SIC:v:s=8An\	!	!	!	!	!	!	!	!	!	!	!	!	!	!	!	!	!	!	!	!	!	!	!	!	!
8A-\	.	8c\	.	8r	.	8r	.	.	.	.	.	.	.	.	.	.	.	.	.	.	.	.	.	.	.
8B-\)	.	8e-\	.	4r	.	4r	.	.	.	.	.	.	.	.	.	.	.	.	.	.	.	.	.	.	.
8B-|\J	.	8c\J	.	.	.	.	.	.	.	.	.	.	.	.	.	.	.	.	.	.	.	.	.	.	.
!LO:LB:g=original	!	!	!	!	!	!	!	!	!	!	!	!	!	!	!	!	!	!	!	!	!	!	!	!	!
=46	=46	=46	=46	=46	=46	=46	=46	=46	=46	=46	=46	=46	=46	=46	=46	=46	=46	=46	=46	=46	=46	=46	=46	=46	=46
!LO:TX:t=P:problem:mixed beam	!	!	!	!	!	!	!	!LO:TX:t=P:problem:korekta	!	!	!	!	!	!	!	!	!	!	!	!	!	!	!	!	!
(8BB-/L	.	4B-/	.	8d/	.	4b-/	.	1BB-	-di	2f\	-di	2d\	-di	2b-\	-di	.	1b-	.	1ff	.	1d	1b-	1a-	1ff	.
8An\	.	.	.	8r	.	.	.	.	.	.	.	.	.	.	.	.	.	.	.	.	.	.	.	.	.
!	!	!	!	!	!	!	!LO:DY:a:t=for	!	!	!	!	!	!	!	!	!	!	!	!	!	!	!	!	!	!
8B-\)	.	4r	.	4r	.	4r	f	.	.	.	.	.	.	.	.	.	.	.	.	.	.	.	.	.	.
8B-|\J	.	.	.	.	.	.	.	.	.	.	.	.	.	.	.	.	.	.	.	.	.	.	.	.	.
!	!	!	!	!LO:LB:g=original	!LO:DY:rj:t=for	!	!	!	!	!	!	!	!	!	!	!	!	!	!	!	!	!	!	!	!
8B-|\L	.	8B-/L	.	8b-/L	f	8b-'/L	.	.	.	2r	.	2r	.	2r	.	.	.	.	.	.	.	.	.	.	.
8F|\	.	8F/	.	8f/	.	8f'/	.	.	.	.	.	.	.	.	.	.	.	.	.	.	.	.	.	.	.
8D|\	.	8D/	.	8d/	.	8d'/	.	.	.	.	.	.	.	.	.	.	.	.	.	.	.	.	.	.	.
8F|\J	.	8F/J	.	8f/J	.	8f'/J	.	.	.	.	.	.	.	.	.	.	.	.	.	.	.	.	.	.	.
=47	=47	=47	=47	=47	=47	=47	=47	=47	=47	=47	=47	=47	=47	=47	=47	=47	=47	=47	=47	=47	=47	=47	=47	=47	=47
!	!	!	!	!	!	!	!	!LO:TX:t=P:problem:korekta	!	!LO:TX:a:t=1	!	!	!	!	!	!	!	!	!	!	!	!	!	!	!
!	!	!	!	!	!	!	!	!LO:TX:a:t=1.:color=grey	!	!	!	!	!	!	!	!	!	!	!	!	!	!	!	!	!
4BB-/	.	4B-/	.	4f/	.	4b-/	.	1r@	.	1r	.	1r	.	1r	.	.	2b-/	.	2ff\	.	2d/	2b-\	2b-\	2ff\	.
4r	.	4r	.	4r	.	4r	.	.	.	.	.	.	.	.	.	.	.	.	.	.	.	.	.	.	.
2r	.	2r	.	2r	.	(8bn\L	.	.	.	.	.	.	.	.	.	.	2r	.	2r	.	2r	2r	2r	2r	.
.	.	.	.	.	.	8cc\	.	.	.	.	.	.	.	.	.	.	.	.	.	.	.	.	.	.	.
.	.	.	.	.	.	8a-\)	.	.	.	.	.	.	.	.	.	.	.	.	.	.	.	.	.	.	.
.	.	.	.	.	.	8f\J	.	.	.	.	.	.	.	.	.	.	.	.	.	.	.	.	.	.	.
=48	=48	=48	=48	=48	=48	=48	=48	=48	=48	=48	=48	=48	=48	=48	=48	=48	=48	=48	=48	=48	=48	=48	=48	=48	=48
!LO:TX:t=P:problem:niepotrzebnie powtórzone 17 taktów w fl 2	!	!LO:TX:t=P:problem:niepotrzebnie powtórzone 17 taktów w fl 2	!	!LO:TX:t=P:problem:niepotrzebnie powtórzone 17 taktów w fl 2	!	!LO:TX:t=P:problem:niepotrzebnie powtórzone 17 taktów w fl 2	!	!LO:TX:t=P:problem:niepotrzebnie powtórzone 17 taktów w fl 2	!	!LO:TX:t=P:problem:niepotrzebnie powtórzone 17 taktów w fl 2	!	!LO:TX:t=P:problem:niepotrzebnie powtórzone 17 taktów w fl 2	!	!LO:TX:t=P:problem:niepotrzebnie powtórzone 17 taktów w fl 2	!	!	!LO:TX:t=P:problem:niepotrzebnie powtórzone 17 taktów w fl 2	!	!LO:TX:t=P:problem:niepotrzebnie powtórzone 17 taktów w fl 2	!	!LO:TX:t=P:problem:niepotrzebnie powtórzone 17 taktów w fl 2	!LO:TX:t=P:problem:niepotrzebnie powtórzone 17 taktów w fl 2	!LO:TX:t=P:problem:niepotrzebnie powtórzone 17 taktów 	!LO:TX:t=P:problem:niepotrzebnie powtórzone 17 taktów w fl 2	!
!	!	!	!	!	!	!	!	!	!	!	!	!	!	!	!	!	!	!	!	!	!	!	!LO:TX:a:t=4	!	!
1ryy	.	1ryy	.	1ryy	.	1ryy	.	1ryy	.	1ryy	.	1ryy	.	1ryy	.	.	1ryy	.	1ryy	.	1ryy	1ryy	00r	1ryy	.
=49	=49	=49	=49	=49	=49	=49	=49	=49	=49	=49	=49	=49	=49	=49	=49	=49	=49	=49	=49	=49	=49	=49	=49	=49	=49
1ryy	.	1ryy	.	1ryy	.	1ryy	.	1ryy	.	1ryy	.	1ryy	.	1ryy	.	.	1ryy	.	1ryy	.	1ryy	1ryy	.	1ryy	.
=50	=50	=50	=50	=50	=50	=50	=50	=50	=50	=50	=50	=50	=50	=50	=50	=50	=50	=50	=50	=50	=50	=50	=50	=50	=50
1ryy	.	1ryy	.	1ryy	.	1ryy	.	1ryy	.	1ryy	.	1ryy	.	1ryy	.	.	1ryy	.	1ryy	.	1ryy	1ryy	.	1ryy	.
=51	=51	=51	=51	=51	=51	=51	=51	=51	=51	=51	=51	=51	=51	=51	=51	=51	=51	=51	=51	=51	=51	=51	=51	=51	=51
1ryy	.	1ryy	.	1ryy	.	1ryy	.	1ryy	.	1ryy	.	1ryy	.	1ryy	.	.	1ryy	.	1ryy	.	1ryy	1ryy	.	1ryy	.
=52	=52	=52	=52	=52	=52	=52	=52	=52	=52	=52	=52	=52	=52	=52	=52	=52	=52	=52	=52	=52	=52	=52	=52	=52	=52
1ryy	.	1ryy	.	1ryy	.	1ryy	.	1ryy	.	1ryy	.	1ryy	.	1ryy	.	.	1ryy	.	1ryy	.	1ryy	1ryy	1ee-	1ryy	.
=53	=53	=53	=53	=53	=53	=53	=53	=53	=53	=53	=53	=53	=53	=53	=53	=53	=53	=53	=53	=53	=53	=53	=53	=53	=53
1ryy	.	1ryy	.	1ryy	.	1ryy	.	1ryy	.	1ryy	.	1ryy	.	1ryy	.	.	1ryy	.	1ryy	.	1ryy	1ryy	1ee-	1ryy	.
=54	=54	=54	=54	=54	=54	=54	=54	=54	=54	=54	=54	=54	=54	=54	=54	=54	=54	=54	=54	=54	=54	=54	=54	=54	=54
1ryy	.	1ryy	.	1ryy	.	1ryy	.	1ryy	.	1ryy	.	1ryy	.	1ryy	.	.	1ryy	.	1ryy	.	1ryy	1ryy	2.dd\	1ryy	.
.	.	.	.	.	.	.	.	.	.	.	.	.	.	.	.	.	.	.	.	.	.	.	4ee-\	.	.
=55	=55	=55	=55	=55	=55	=55	=55	=55	=55	=55	=55	=55	=55	=55	=55	=55	=55	=55	=55	=55	=55	=55	=55	=55	=55
1ryy	.	1ryy	.	1ryy	.	1ryy	.	1ryy	.	1ryy	.	1ryy	.	1ryy	.	.	1ryy	.	1ryy	.	1ryy	1ryy	2.ff\	1ryy	.
.	.	.	.	.	.	.	.	.	.	.	.	.	.	.	.	.	.	.	.	.	.	.	4ff\	.	.
!	!	!	!	!	!	!	!	!	!	!	!	!	!	!	!	!	!	!	!	!	!	!	!LO:LB:g=original	!	!
=56	=56	=56	=56	=56	=56	=56	=56	=56	=56	=56	=56	=56	=56	=56	=56	=56	=56	=56	=56	=56	=56	=56	=56	=56	=56
1ryy	.	1ryy	.	1ryy	.	1ryy	.	1ryy	.	1ryy	.	1ryy	.	1ryy	.	.	1ryy	.	1ryy	.	1ryy	1ryy	4ee-\	1ryy	.
.	.	.	.	.	.	.	.	.	.	.	.	.	.	.	.	.	.	.	.	.	.	.	4dd\	.	.
.	.	.	.	.	.	.	.	.	.	.	.	.	.	.	.	.	.	.	.	.	.	.	2r	.	.
=57	=57	=57	=57	=57	=57	=57	=57	=57	=57	=57	=57	=57	=57	=57	=57	=57	=57	=57	=57	=57	=57	=57	=57	=57	=57
1ryy	.	1ryy	.	1ryy	.	1ryy	.	1ryy	.	1ryy	.	1ryy	.	1ryy	.	.	1ryy	.	1ryy	.	1ryy	1ryy	1b-	1ryy	.
=58	=58	=58	=58	=58	=58	=58	=58	=58	=58	=58	=58	=58	=58	=58	=58	=58	=58	=58	=58	=58	=58	=58	=58	=58	=58
1ryy	.	1ryy	.	1ryy	.	1ryy	.	1ryy	.	1ryy	.	1ryy	.	1ryy	.	.	1ryy	.	1ryy	.	1ryy	1ryy	2cc\	1ryy	.
.	.	.	.	.	.	.	.	.	.	.	.	.	.	.	.	.	.	.	.	.	.	.	2cc\	.	.
=59	=59	=59	=59	=59	=59	=59	=59	=59	=59	=59	=59	=59	=59	=59	=59	=59	=59	=59	=59	=59	=59	=59	=59	=59	=59
1ryy	.	1ryy	.	1ryy	.	1ryy	.	1ryy	.	1ryy	.	1ryy	.	1ryy	.	.	1ryy	.	1ryy	.	1ryy	1ryy	1dd	1ryy	.
=60	=60	=60	=60	=60	=60	=60	=60	=60	=60	=60	=60	=60	=60	=60	=60	=60	=60	=60	=60	=60	=60	=60	=60	=60	=60
1ryy	.	1ryy	.	1ryy	.	1ryy	.	1ryy	.	1ryy	.	1ryy	.	1ryy	.	.	1ryy	.	1ryy	.	1ryy	1ryy	2ee-\	1ryy	.
.	.	.	.	.	.	.	.	.	.	.	.	.	.	.	.	.	.	.	.	.	.	.	2ee-\	.	.
=61	=61	=61	=61	=61	=61	=61	=61	=61	=61	=61	=61	=61	=61	=61	=61	=61	=61	=61	=61	=61	=61	=61	=61	=61	=61
1ryy	.	1ryy	.	1ryy	.	1ryy	.	1ryy	.	1ryy	.	1ryy	.	1ryy	.	.	1ryy	.	1ryy	.	1ryy	1ryy	2dd\	1ryy	.
.	.	.	.	.	.	.	.	.	.	.	.	.	.	.	.	.	.	.	.	.	.	.	2cc\	.	.
=62	=62	=62	=62	=62	=62	=62	=62	=62	=62	=62	=62	=62	=62	=62	=62	=62	=62	=62	=62	=62	=62	=62	=62	=62	=62
1ryy	.	1ryy	.	1ryy	.	1ryy	.	1ryy	.	1ryy	.	1ryy	.	1ryy	.	.	1ryy	.	1ryy	.	1ryy	1ryy	2b-\	1ryy	.
.	.	.	.	.	.	.	.	.	.	.	.	.	.	.	.	.	.	.	.	.	.	.	2an\	.	.
=63	=63	=63	=63	=63	=63	=63	=63	=63	=63	=63	=63	=63	=63	=63	=63	=63	=63	=63	=63	=63	=63	=63	=63	=63	=63
1ryy	.	1ryy	.	1ryy	.	1ryy	.	1ryy	.	1ryy	.	1ryy	.	1ryy	.	.	1ryy	.	1ryy	.	1ryy	1ryy	1b-	1ryy	.
=64	=64	=64	=64	=64	=64	=64	=64	=64	=64	=64	=64	=64	=64	=64	=64	=64	=64	=64	=64	=64	=64	=64	=64	=64	=64
1ryy	.	1ryy	.	1ryy	.	1ryy	.	1ryy	.	1ryy	.	1ryy	.	1ryy	.	.	1ryy	.	1ryy	.	1ryy	1ryy	2b-\	1ryy	.
!	!	!	!	!	!	!	!	!	!	!	!	!	!	!	!	!	!	!	!	!	!	!	!LO:TX:a:i:t=Solo	!	!
.	.	.	.	.	.	.	.	.	.	.	.	.	.	.	.	.	.	.	.	.	.	.	2r	.	.
=65	=65	=65	=65	=65	=65	=65	=65	=65	=65	=65	=65	=65	=65	=65	=65	=65	=65	=65	=65	=65	=65	=65	=65	=65	=65
*	*	*	*	*	*	*	*	*	*	*	*	*	*	*	*	*	*	*	*	*	*	*8va	*	*	*
!LO:TX:a:i:rj:t=Dona Solo	!	!	!LO:DY:a:t=po	!	!	!LO:TX:a:i:t=Dona	!	!	!	!	!	!	!	!	!	!	!	!	!	!	!	!LO:TX:a:i:rj:t=Solo	!	!	!
4E-\	.	4r	p	4r	.	4r	.	2.e-\	Do-	2.e-\	do-	2.g\	do-	2.b-\	Do-	.	2.ee-\	.	2.gg\	.	2.g/	2.bb-\	2.b-\	2.gg\	.
!	!	!	!	!	!LO:DY:a:t=pio	!	!	!	!	!	!	!	!	!	!	!	!	!	!	!	!	!	!	!	!
4r	.	4e-\	.	4g/	p	4b-\	.	.	.	.	.	.	.	.	.	.	.	.	.	.	.	.	.	.	.
2r	.	4e-\	.	4g/	.	(4b-\	.	.	.	.	.	.	.	.	.	.	.	.	.	.	.	.	.	.	.
!	!	!	!	!	!	!	!	!	!	!	!	!	!	!	!	!	!	!	!	!	!LO:SIC:v:s=4a-/	!	!	!	!
.	.	4f\	.	4a-/	.	4bn\)	.	4d\	-na	4f\	-na	4a-X\	-na	4b#X\	-na	.	4ff\	.	4aa-\	.	4a/	4bbX\	4b#X\	4aa-\	.
!	!	!	!	!	!	!	!	!	!	!LO:LB:g=original	!	!LO:LB:g=original	!	!LO:LB:g=original	!	!	!	!	!	!	!	!	!	!	!
=66	=66	=66	=66	=66	=66	=66	=66	=66	=66	=66	=66	=66	=66	=66	=66	=66	=66	=66	=66	=66	=66	=66	=66	=66	=66
4C/	.	4e-\	.	4g/	.	4.ccsSSS\	.	4c\	no-	4e-\	no-	2g\	no-	4.ccsSSS\	no-	.	4ee-\	.	4gg\	.	2g/	4.ccc\	4.cc\	4gg\	.
4r	.	4e-\	.	4g/	.	.	.	4r	.	4r	.	.	.	.	.	.	4r	.	4r	.	.	.	.	4r	.
.	.	.	.	.	.	8dd\	.	.	.	.	.	.	.	8dd\	.	.	.	.	.	.	.	8ddd\	8dd\	.	.
2r	.	4r	.	4r	.	8ff\L	.	4r	.	4r	.	4r	.	(8ff\L	.	.	2r	.	2r	.	4r	8fff\L	8ff\L	2r	.
.	.	.	.	.	.	(8ee-\	.	.	.	.	.	.	.	8ee-\J)	.	.	.	.	.	.	.	(8eee-\	(8ee-\	.	.
!	!	!	!	!	!	!	!	!	!	!	!	!	!	!	!	!	!	!	!	!	!LO:SIC:v:s=4a-/	!	!	!	!
.	.	4A-/	.	(8b-/L	.	8dd\)	.	4A-\	-bis	4e-\	-bis	8b-\L	-bis	(8dd\L	-bis	.	.	.	.	.	4a/	8ddd\	8dd\)	.	.
.	.	.	.	8a-/J)	.	8cc\J	.	.	.	.	.	8a-\J	.	8cc\J)	.	.	.	.	.	.	.	8ccc\J)	8cc\J	.	.
!	!	!	!	!	!	!	!	!	!	!	!	!	!	!	!	!	!	!	!	!	!LO:LB:g=original	!	!LO:LB:g=original	!	!
=67	=67	=67	=67	=67	=67	=67	=67	=67	=67	=67	=67	=67	=67	=67	=67	=67	=67	=67	=67	=67	=67	=67	=67	=67	=67
4BB-/	.	4B-/	.	4r	.	4r	.	1B-	pa-	2e-\	pa-	(2g\	pa-	2b-X\	pa-	.	2g/	.	2ee-\	.	2g/	2bb-X\	2bn\	2ee-\	.
4r	.	4r	.	4g/	.	4b-\	.	.	.	.	.	.	.	.	.	.	.	.	.	.	.	.	.	.	.
4BB-/	.	4B-/	.	4r	.	4r	.	.	.	4f\	.	2f\)	.	2a-X\	.	.	2b-/	.	2ff\	.	2f/	2aa-X\	2a-X\	2ff\	.
4r	.	4r	.	4f/	.	4a-\	.	.	.	4d\	.	.	.	.	.	.	.	.	.	.	.	.	.	.	.
!	!	!	!	!	!	!LO:LB:g=original	!	!	!	!	!	!	!	!	!	!	!	!	!	!	!	!	!	!	!
=68	=68	=68	=68	=68	=68	=68	=68	=68	=68	=68	=68	=68	=68	=68	=68	=68	=68	=68	=68	=68	=68	=68	=68	=68	=68
4E-\	.	4E-/	.	4r	.	4r	.	2E-\	-cem	2B-\	-cem	2e-\	-cem	4g\	-cem	.	4g/	.	4ee-\	.	4e-/	4gg/	4g/	4ee-\	.
4r	.	4r	.	4e-|/	.	4g|/	.	.	.	.	.	.	.	4r	.	.	4r	.	4r	.	4r	4r	4r	4r	.
2r	.	2r	.	(4e-/	.	(4g/	.	2r	.	2r	.	2r	.	2r	.	.	2r	.	2r	.	2r	2r	2r	2r	.
.	.	.	.	4f/)	.	4a-/)	.	.	.	.	.	.	.	.	.	.	.	.	.	.	.	.	.	.	.
!	!	!LO:PB:g=original	!	!	!	!	!	!	!	!	!	!	!	!	!	!	!	!	!	!	!	!	!	!LO:LB:g=original	!
=69	=69	=69	=69	=69	=69	=69	=69	=69	=69	=69	=69	=69	=69	=69	=69	=69	=69	=69	=69	=69	=69	=69	=69	=69	=69
4E-\	.	4E-/	.	4r	.	4r	.	2.e-\	do-	2.e-\	do-	2.g\	do-	2.b-\	do-	.	2.ee-\	.	2.gg\	.	2.g/	2.bb-\	2.b-\	2.gg\	.
4r	.	4e-\	.	4g/	.	4b-\|	.	.	.	.	.	.	.	.	.	.	.	.	.	.	.	.	.	.	.
2r	.	4e-\	.	4g/	.	(4b-\	.	.	.	.	.	.	.	.	.	.	.	.	.	.	.	.	.	.	.
!	!	!	!	!LO:TX:b:i:t=Verte Cito	!	!	!	!	!	!	!	!	!	!	!	!	!	!	!	!	!	!	!	!	!
.	.	4d\	.	4a-/	.	4bn\)	.	4d\	-na	4f\	-na	4a-X\	-na	4bn\	-na	.	4ff\	.	4aa-\	.	4a-X/	4bb-\	4b-\	4aa-\	.
!	!	!	!	!LO:PB:g=original	!	!	!	!	!	!	!	!	!	!	!	!	!LO:LB:g=original	!	!	!	!	!LO:LB:g=original	!	!	!
=70	=70	=70	=70	=70	=70	=70	=70	=70	=70	=70	=70	=70	=70	=70	=70	=70	=70	=70	=70	=70	=70	=70	=70	=70	=70
4C/	.	4c\	.	4g/	.	4.cc\	.	2.c\	no-	2e-\	no-	2.g\	no-	4.ccsSSS\	no-	.	4ee-\	.	4gg\	.	4g/	4.ccc\	4.cc\	4gg\	.
4r	.	4c\	.	4g/	.	.	.	.	.	.	.	.	.	.	.	.	4r	.	4r	.	4r	.	.	4r	.
.	.	.	.	.	.	8dd\	.	.	.	.	.	.	.	8dd\	.	.	.	.	.	.	.	8ddd\	8dd\	.	.
4r	.	4r	.	4r	.	(8ff\L	.	.	.	4r	.	.	.	8ff\L	.	.	2r	.	2r	.	4r	8fff\L	8ff\L	2r	.
.	.	.	.	.	.	8ee-\)	.	.	.	.	.	.	.	8ee-\J	.	.	.	.	.	.	.	8eee-\	8ee-\	.	.
!	!	!	!	!	!	!LO:TX:t=c	!	!	!	!	!	!	!	!	!	!	!	!	!	!	!LO:SIC:v:s=8a-/L	!	!	!	!
4A-\	.	4A-/	.	4f/	.	(8cc\	.	4A-\	-bis	4c\	-bis	4f\	-bis	8cc\L	-bis	.	.	.	.	.	8a/L	8ccc\	8cc\	.	.
.	.	.	.	.	.	8a-\J)	.	.	.	.	.	.	.	8a-\J	.	.	.	.	.	.	8f/J	8aa-\J	8a-\J	.	.
!	!	!	!	!	!	!	!	!	!	!	!	!	!	!	!	!	!	!	!LO:LB:g=original	!	!	!	!	!	!
=71	=71	=71	=71	=71	=71	=71	=71	=71	=71	=71	=71	=71	=71	=71	=71	=71	=71	=71	=71	=71	=71	=71	=71	=71	=71
4B-\	.	4B-/	.	4r	.	4r	.	2B-\	pa-	(2B-\	pa-	(2e-\	pa-	2g/	pa-	.	2g/	.	2ee-\	.	2e-/	2gg/	2g/	2ee-\	.
4r	.	4r	.	4e-/	.	4g/	.	.	.	.	.	.	.	.	.	.	.	.	.	.	.	.	.	.	.
*	*	*	*	*	*	*	*	*	*	*	*	*	*	*	*	*	*	*	*	*	*	*X8va	*	*	*
!	!	!	!	!	!	!	!	!	!	!	!	!	!	!	!	!	!	!	!	!	!	!LO:TX:a:i:t=Solo	!	!	!
4BB-/	.	4B-/	.	4r	.	4r	.	2BB-/	.	2A-\)	.	2d\)	.	2f/	.	.	2b-/	.	2ff\	.	2d/	2f/	2f/	2ff\	.
4r	.	4r	.	4d/	.	4f/	.	.	.	.	.	.	.	.	.	.	.	.	.	.	.	.	.	.	.
!LO:LB:g=original	!	!	!	!	!	!	!	!LO:LB:g=original	!	!	!	!	!	!	!	!	!	!	!	!	!	!	!	!	!
=72	=72	=72	=72	=72	=72	=72	=72	=72	=72	=72	=72	=72	=72	=72	=72	=72	=72	=72	=72	=72	=72	=72	=72	=72	=72
*	*	*	*	*tremolo	*	*tremolo	*	*	*	*	*	*	*	*	*	*	*	*	*	*	*	*	*	*	*
!LO:TX:a:i:t=Tasto	!	!	!	!	!LO:DY:a:t=pio	!	!LO:DY:a:rj:t=pio	!	!	!	!	!	!	!LO:TX:a:t=7	!	!	!	!	!LO:TX:a:t=1	!	!	!	!	!LO:TX:a:t=1	!
4E-\	.	4E-/	.	(8g/L	p	(8g/L	p	4E-\	-cem	2G/	-cem	4B-/	-cem	4e-/	-cem	.	2g/	.	1r	.	4e-/	8ee-\L	8ee-\L	1r	.
.	.	.	.	8B-/	.	8B-/	.	.	.	.	.	.	.	.	.	.	.	.	.	.	.	8bb-\J	8bb-\J	.	.
4r	.	4r	.	8g/	.	8g/	.	4r	.	.	.	4r	.	4r	.	.	.	.	.	.	4r	2bb-\	2bb-\	.	.
.	.	.	.	8B-/J)	.	8B-/J)	.	.	.	.	.	.	.	.	.	.	.	.	.	.	.	.	.	.	.
2r	.	4E-/	.	(8e-/L	.	(8g/L	.	2r	.	2r	.	2r	.	2r	.	.	2r	.	.	.	2r	.	.	.	.
.	.	.	.	8B-/	.	8B-/	.	.	.	.	.	.	.	.	.	.	.	.	.	.	.	.	.	.	.
.	.	4r	.	8e-/	.	8g/	.	.	.	.	.	.	.	.	.	.	.	.	.	.	.	(8gg\L	(8gg\L	.	.
.	.	.	.	8B-/J)	.	8B-/J)	.	.	.	.	.	.	.	.	.	.	.	.	.	.	.	8ee-\J)	8ee-\J)	.	.
=73	=73	=73	=73	=73	=73	=73	=73	=73	=73	=73	=73	=73	=73	=73	=73	=73	=73	=73	=73	=73	=73	=73	=73	=73	=73
*	*	*	*	*	*	*^	*	*	*	*	*	*	*	*	*	*	*	*	*	*	*	*	*	*	*
*	*	*	*	*	*	*	*cue	*	*	*	*	*	*	*	*	*	*	*	*	*	*	*	*	*	*	*
!	!LO:DY:t=pio	!	!	!	!	!	!	!	!LO:TX:a:t=7	!	!LO:TX:a:t=7	!	!LO:TX:a:t=7	!	!LO:TX:a:t=7	!	!	!LO:TX:a:t=5	!	!LO:TX:a:i:t=Solo	!	!LO:TX:a:t=5	!	!	!LO:TX:a:i:rj:t=Solo	!
4BB-/	p	4B-/	.	(8f/L	.	(<8a-/L	8ff/L	.	00r	.	00r	.	00r	.	00r	.	.	00r	.	(8ff\L	.	00r	(8ee-\L	8ee-\L	8ff\L	.
.	.	.	.	8B-/	.	8f/	8bb-/J	.	.	.	.	.	.	.	.	.	.	.	.	8bb-\J)	.	.	8dd\J)	8dd\J	8bb-\J	.
4r	.	4r	.	8f/	.	8a-/	2bb-/	.	.	.	.	.	.	.	.	.	.	.	.	2bb-\	.	.	2dd\	2dd\	2bb-\	.
.	.	.	.	8B-/J)	.	8f/J)	.	.	.	.	.	.	.	.	.	.	.	.	.	.	.	.	.	.	.	.
4BB-/	.	4B-/	.	(8f/L	.	(<8a-/L	.	.	.	.	.	.	.	.	.	.	.	.	.	.	.	.	.	.	.	.
.	.	.	.	8B-/	.	8f/	.	.	.	.	.	.	.	.	.	.	.	.	.	.	.	.	.	.	.	.
4r	.	4r	.	8f/	.	8a-/	8aa-/L	.	.	.	.	.	.	.	.	.	.	.	.	8aa-\L	.	.	(8ff\L	8ff\L	(8aa-\L	.
.	.	.	.	8B-/J)	.	8f/J)	8ff/J	.	.	.	.	.	.	.	.	.	.	.	.	8ff\J	.	.	8dd\J)	8dd\J	8ff\J)	.
=74	=74	=74	=74	=74	=74	=74	=74	=74	=74	=74	=74	=74	=74	=74	=74	=74	=74	=74	=74	=74	=74	=74	=74	=74	=74	=74
4E-\	.	4B-/	.	(8e-/L	.	(<8g/L	8ee-/L	.	.	.	.	.	.	.	.	.	.	.	.	(8ee-\L	.	.	4ee-\	4ee-\	(8ee-\L	.
.	.	.	.	8B-/	.	8B-/	8bb-/J	.	.	.	.	.	.	.	.	.	.	.	.	8bb-\J)	.	.	.	.	8bb-\J)	.
4r	.	4r	.	8e-/	.	8g/	2bb-/	.	.	.	.	.	.	.	.	.	.	.	.	2bb-\	.	.	4r	4r	2bb-\	.
.	.	.	.	8B-/J)	.	8B-/J)	.	.	.	.	.	.	.	.	.	.	.	.	.	.	.	.	.	.	.	.
4E-\	.	4B-/	.	(8e-/L	.	(<8g/L	.	.	.	.	.	.	.	.	.	.	.	.	.	.	.	.	4r	4r	.	.
.	.	.	.	8B-/	.	8B-/	.	.	.	.	.	.	.	.	.	.	.	.	.	.	.	.	.	.	.	.
4r	.	4r	.	8e-/	.	8g/	8gg/L	.	.	.	.	.	.	.	.	.	.	.	.	8gg\L	.	.	4ee-\	4ee-\	(8gg\L	.
.	.	.	.	8B-/J)	.	8B-/J)	8ee-/J	.	.	.	.	.	.	.	.	.	.	.	.	8ee-\J	.	.	.	.	8ee-\J)	.
!	!	!	!	!	!	!	!	!	!	!	!	!	!	!	!	!	!	!	!	!	!	!	!	!LO:LB:g=original	!	!
=75	=75	=75	=75	=75	=75	=75	=75	=75	=75	=75	=75	=75	=75	=75	=75	=75	=75	=75	=75	=75	=75	=75	=75	=75	=75	=75
4BB-/	.	4B-/	.	(8f/L	.	(<8a-/L	8ff/L	.	.	.	.	.	.	.	.	.	.	.	.	(8ff\L	.	.	(8ee-\L	8ee-\L	8ff\L	.
.	.	.	.	8d/	.	8B-/	8bb-/J	.	.	.	.	.	.	.	.	.	.	.	.	8bb-\J)	.	.	8dd\J)	8dd\J	8bb-\J	.
4r	.	4r	.	8f/	.	8a-/	2bb-/	.	.	.	.	.	.	.	.	.	.	.	.	2bb-\	.	.	2dd\	2dd\	2bb-\	.
.	.	.	.	8d/J)	.	8B-/J)	.	.	.	.	.	.	.	.	.	.	.	.	.	.	.	.	.	.	.	.
4BB-/	.	4B-/	.	(8f/L	.	(<8a-/L	.	.	.	.	.	.	.	.	.	.	.	.	.	.	.	.	.	.	.	.
.	.	.	.	8d/	.	8B-/	.	.	.	.	.	.	.	.	.	.	.	.	.	.	.	.	.	.	.	.
4r	.	4r	.	8f/	.	8a-/	8aa-/L	.	.	.	.	.	.	.	.	.	.	.	.	(8aa-\L	.	.	(8ff\L	8ee-\L	8aa-\L	.
!	!	!	!	!	!	!	!	!	!	!	!	!	!	!	!	!	!	!	!	!LO:TX:t=x:color=grey	!	!	!	!	!	!
.	.	.	.	8d/J)	.	8B-/J)	8ff/J	.	.	.	.	.	.	.	.	.	.	.	.	8ff\J)	.	.	8dd\J)	8cc\J	8ff\J	.
*	*	*	*	*Xtremolo	*	*Xtremolo	*	*	*	*	*	*	*	*	*	*	*	*	*	*	*	*	*	*	*	*
!	!	!	!	!LO:LB:g=original	!	!LO:LB:g=original	!LO:LB:g=original	!	!	!	!	!	!	!	!	!	!	!	!	!	!	!	!	!	!	!
=76	=76	=76	=76	=76	=76	=76	=76	=76	=76	=76	=76	=76	=76	=76	=76	=76	=76	=76	=76	=76	=76	=76	=76	=76	=76	=76
4E-\	.	4B-/	.	8r	.	8rg	8bb-/L	.	.	.	.	.	.	.	.	.	.	.	.	8bb-\L	.	.	4ee-\	4ee-\	8bb-\L	.
.	.	.	.	8B-/L	.	8e-/L	8eee-/J	.	.	.	.	.	.	.	.	.	.	.	.	8eee-\J	.	.	.	.	8eee-\J	.
4r	.	4r	.	8B-/	.	8e-/	2eee-/	.	.	.	.	.	.	.	.	.	.	.	.	2eee-\	.	.	4r	4r	2eee-\	.
.	.	.	.	8B-/J	.	8e-/J	.	.	.	.	.	.	.	.	.	.	.	.	.	.	.	.	.	.	.	.
4G\	.	4B-/	.	8r	.	8rg	.	.	.	.	.	.	.	.	.	.	.	.	.	.	.	.	2r	2r	.	.
.	.	.	.	8B-/L	.	8e-/L	.	.	.	.	.	.	.	.	.	.	.	.	.	.	.	.	.	.	.	.
4r	.	4r	.	8B-/	.	8e-/	8bb-/L	.	.	.	.	.	.	.	.	.	.	.	.	(8bb-\L|	.	.	.	.	(8bb-\L	.
.	.	.	.	8B-/J	.	8e-/J	8gg/J	.	.	.	.	.	.	.	.	.	.	.	.	8gg\J)	.	.	.	.	8gg\J)	.
!	!	!LO:LB:g=original	!	!	!	!	!	!	!	!	!	!	!	!	!	!	!	!	!	!	!	!	!	!	!LO:LB:g=original	!
=77	=77	=77	=77	=77	=77	=77	=77	=77	=77	=77	=77	=77	=77	=77	=77	=77	=77	=77	=77	=77	=77	=77	=77	=77	=77	=77
!	!	!	!	!	!	!	!	!	!	!	!	!	!	!	!	!	!	!	!	!	!	!	!LO:TX:a:t=1	!LO:TX:a:t=1	!	!
4A-\	.	4A-/	.	8r	.	8rg	8ff/L	.	0r	.	0r	.	0r	.	0r	.	.	1r	.	8ff\L	.	1r	1r	1r	8ff\L	.
.	.	.	.	8c/L	.	8f/L	8ccc/J	.	.	.	.	.	.	.	.	.	.	.	.	8ccc\J	.	.	.	.	8ccc\J	.
4r	.	4r	.	8c/	.	8f/	2ccc/	.	.	.	.	.	.	.	.	.	.	.	.	2ccc\	.	.	.	.	2ccc\	.
.	.	.	.	8c/J	.	8f/J	.	.	.	.	.	.	.	.	.	.	.	.	.	.	.	.	.	.	.	.
4A-\	.	4A-/	.	8r	.	8rg	.	.	.	.	.	.	.	.	.	.	.	.	.	.	.	.	.	.	.	.
.	.	.	.	8c/L	.	8f/L	.	.	.	.	.	.	.	.	.	.	.	.	.	.	.	.	.	.	.	.
4r	.	4r	.	8c/	.	8f/	8aa-/L	.	.	.	.	.	.	.	.	.	.	.	.	(8aa-\L	.	.	.	.	(8aa-\L	.
.	.	.	.	8c/J	.	8f/J	8ff/J	.	.	.	.	.	.	.	.	.	.	.	.	8ff\J)	.	.	.	.	8ff\J)	.
*	*	*	*	*	*	*	*Xcue	*	*	*	*	*	*	*	*	*	*	*	*	*	*	*	*	*	*	*
*	*	*	*	*	*	*v	*v	*	*	*	*	*	*	*	*	*	*	*	*	*	*	*	*	*	*	*
!	!	!	!	!	!	!	!	!	!	!	!	!	!	!	!	!	!	!	!	!	!	!LO:LB:g=original	!	!	!
=78	=78	=78	=78	=78	=78	=78	=78	=78	=78	=78	=78	=78	=78	=78	=78	=78	=78	=78	=78	=78	=78	=78	=78	=78	=78
!	!	!	!	!	!	!LO:TX:a:i:t=Sum	!	!	!	!	!	!	!	!	!	!	!	!	!	!	!	!	!	!	!
4B-\	.	4B-/	.	4g/	.	(4b-/	.	.	.	.	.	.	.	.	.	.	4gg\	.	4bb-\	.	4d/	4gg\	4gg\	4bb-\	.
4r	.	4r	.	4f/	.	4a-/)	.	.	.	.	.	.	.	.	.	.	4ff\	.	4aa-\	.	4f/	4ff\	4ff\	4aa-\	.
4BB-/	.	4B-/	.	4e-/	.	(4g/	.	.	.	.	.	.	.	.	.	.	4ee-\	.	4gg\	.	4d/	4ee-\	4ee-\	4gg\	.
4r	.	4r	.	4d/	.	4f/)	.	.	.	.	.	.	.	.	.	.	4b-/	.	4ff\	.	4B-/	4dd\	4dd\	4ff\	.
!	!	!	!	!	!	!	!	!	!	!	!	!	!	!	!	!	!	!	!LO:LB:g=original	!	!	!	!	!	!
=79	=79	=79	=79	=79	=79	=79	=79	=79	=79	=79	=79	=79	=79	=79	=79	=79	=79	=79	=79	=79	=79	=79	=79	=79	=79
4E-\	.	4B-/	.	4B-/	.	4e-/	.	1r	.	1r	.	1r	.	1r	.	.	4g/	.	4gg\	.	4e-/	4ee-\	4ee-\	4gg\	.
4E-\	.	4E-/	.	4B-/	.	4e- 4G/	.	.	.	.	.	.	.	.	.	.	4r	.	4r	.	4r	4r	4r	4r	.
!	!	!	!	!	!	!	!	!	!	!	!	!	!	!	!	!	!	!	!	!	!	!LO:TX:a:i:t=Solo	!	!	!
4E-\	.	4E-/	.	4B-/	.	4e- 4G/	.	.	.	.	.	.	.	.	.	.	2r	.	2r	.	2r	2r	2r	2r	.
4r	.	4r	.	4r	.	4r	.	.	.	.	.	.	.	.	.	.	.	.	.	.	.	.	.	.	.
!	!	!	!	!	!	!	!	!	!	!	!	!	!	!LO:LB:g=original	!	!	!	!	!	!	!	!	!	!	!
=80	=80	=80	=80	=80	=80	=80	=80	=80	=80	=80	=80	=80	=80	=80	=80	=80	=80	=80	=80	=80	=80	=80	=80	=80	=80
4E-\	.	4E-/	.	4r	.	4r	.	2.e-\	do-	2.e-\	do-	2.g\	do-	2.b-\	Do-	.	2.ee-\	.	2.gg\	.	2.g/	2.b-\	2.b-\	2.gg\	.
4r	.	4r	.	4g/	.	4b-|\	.	.	.	.	.	.	.	.	.	.	.	.	.	.	.	.	.	.	.
2r	.	2r	.	4g/	.	(4b-\	.	.	.	.	.	.	.	.	.	.	.	.	.	.	.	.	.	.	.
!	!	!	!	!	!	!	!	!	!	!	!	!	!	!	!	!	!	!	!	!	!LO:SIC:v:s=4a-/	!	!	!	!
.	.	.	.	4a-X/	.	4bn\)	.	4d\	-na	4f\	-na	4a-X\	-na	4bn\	-na	.	4ff\	.	4aa-\	.	4a/	4bX\	4b#X\	4aa-\	.
!	!	!	!	!	!	!	!	!	!	!	!	!	!	!	!	!	!	!	!	!	!LO:LB:g=original	!	!	!	!
=81	=81	=81	=81	=81	=81	=81	=81	=81	=81	=81	=81	=81	=81	=81	=81	=81	=81	=81	=81	=81	=81	=81	=81	=81	=81
4C/	.	4c\	.	4g/	.	4.cc\	.	2.c\	no-	4e-\	no-	2g\	no-	4.cc\	no-	.	4ee-\	.	4gg\	.	2g/	4.cc\	4.cc\	4gg\	.
4r	.	4c\	.	4g/	.	.	.	.	.	4r	.	.	.	.	.	.	4r	.	4r	.	.	.	.	4r	.
.	.	.	.	.	.	8dd\	.	.	.	.	.	.	.	8dd\	.	.	.	.	.	.	.	8dd\	8dd\	.	.
.	.	.	.	.	.	.	.	.	.	.	.	.	.	.	.	.	.	.	.	.	.	8qqff/	8qqff/	.	.
4A-\	.	4r	.	4r	.	(8ff\L	.	.	.	4r	.	4r	.	8ff\L	.	.	2r	.	2r	.	4r	4ee-\	4ee-\	2r	.
.	.	.	.	.	.	8ee-\	.	.	.	.	.	.	.	8ee-\J	.	.	.	.	.	.	.	.	.	.	.
!	!	!	!	!	!	!	!	!	!	!LO:LB:g=original	!	!	!	!	!	!	!	!	!	!	!LO:SIC:v:s=4a-/	!	!	!	!
4r	.	4A-/	.	(8b-/L	.	8dd\)	.	4A-\	-bis	8d\L	-bis	8b-\L	-bis	8dd\L	-bis	.	.	.	.	.	4a/	8dd\L	8dd\L	.	.
.	.	.	.	8a-/J)	.	8cc\J	.	.	.	8c\J	.	8a-\J	.	8cc\J	.	.	.	.	.	.	.	8cc\J	8cc\J	.	.
!LO:LB:g=original	!	!	!	!LO:LB:g=original	!	!	!	!	!	!	!	!LO:LB:g=original	!	!	!	!	!	!	!	!	!	!	!	!	!
=82	=82	=82	=82	=82	=82	=82	=82	=82	=82	=82	=82	=82	=82	=82	=82	=82	=82	=82	=82	=82	=82	=82	=82	=82	=82
4B-\	.	4B-/	.	4r	.	4r	.	(2B-\	pa-	(2e-\	pa-	(2g\	pa-	2b-X\	pa-	.	2g/	.	2ee-\	.	2g/	2b-X\	2bn\	2ee-\	.
4r	.	4r	.	4g/	.	4b-/	.	.	.	.	.	.	.	.	.	.	.	.	.	.	.	.	.	.	.
4BB-/	.	4B-/	.	4r	.	4r	.	2BB-/)	.	2d\)	.	2f\)	.	2a-X\	.	.	2b-/	.	2ff\	.	2f/	2a-X\	2a-X\	2ff\	.
4r	.	4r	.	4f/	.	4a-/	.	.	.	.	.	.	.	.	.	.	.	.	.	.	.	.	.	.	.
=83	=83	=83	=83	=83	=83	=83	=83	=83	=83	=83	=83	=83	=83	=83	=83	=83	=83	=83	=83	=83	=83	=83	=83	=83	=83
4E-\	.	4E-/	.	4r	.	4r	.	2E-\	-cem	2B-\	-cem	2e-\	-cem	2g\	-cem	.	4ee-\	.	4gg\	.	4e-/	4g/	4g/	4gg\	.
4r	.	4r	.	4e-/	.	4g|/	.	.	.	.	.	.	.	.	.	.	4g/	.	4ee-\	.	4r	4r	4r	4ee-\	.
2r	.	2r	.	4e-/	.	(4g/	.	2r	.	2r	.	2r	.	2r	.	.	2r	.	2r	.	2r	2r	2r	2r	.
.	.	.	.	4f/	.	4a-/)	.	.	.	.	.	.	.	.	.	.	.	.	.	.	.	.	.	.	.
!	!	!	!	!	!	!LO:LB:g=original	!	!	!	!	!	!	!	!	!	!	!LO:LB:g=original	!	!	!	!	!	!LO:LB:g=original	!	!
=84	=84	=84	=84	=84	=84	=84	=84	=84	=84	=84	=84	=84	=84	=84	=84	=84	=84	=84	=84	=84	=84	=84	=84	=84	=84
4E-\	.	4e-\	.	4r	.	4r	.	2.e-\	do-	2.e-\	do-	2.g\	do-	2.b-X\	do-	.	2.ee-\	.	2.gg\	.	2.g/	2.b-\	2.b-\	2.gg\	.
4r	.	4E-/	.	4g/	.	4cc|\	.	.	.	.	.	.	.	.	.	.	.	.	.	.	.	.	.	.	.
2r	.	4e-\	.	4g/	.	(4b-\	.	.	.	.	.	.	.	.	.	.	.	.	.	.	.	.	.	.	.
!	!	!	!	!	!	!	!	!	!	!	!	!	!	!	!	!	!	!	!	!	!LO:SIC:v:s=4a-/	!	!	!	!
.	.	4d\	.	4a-X/	.	4bn\)	.	4d\	-na	4f\	-na	4a-X\	-na	4bn\	-na	.	4ff\	.	4aa-\	.	4a/	4bX\	4b#X\	4aa-\	.
!	!	!LO:LB:g=original	!	!	!	!	!	!	!	!	!	!	!	!	!	!	!	!	!	!	!	!	!	!LO:LB:g=original	!
=85	=85	=85	=85	=85	=85	=85	=85	=85	=85	=85	=85	=85	=85	=85	=85	=85	=85	=85	=85	=85	=85	=85	=85	=85	=85
4C/	.	4c\	.	4g/	.	4.ccsSSS\	.	2c\	no-	2e-\	no-	2.g\	no-	4.cc\	no-	.	4ee-\	.	4gg\	.	4g/	4.cc\	4.cc\	4gg\	.
4r	.	4c\	.	4g/	.	.	.	.	.	.	.	.	.	.	.	.	4r	.	4r	.	4r	.	.	4r	.
.	.	.	.	.	.	8dd\	.	.	.	.	.	.	.	8dd\	.	.	.	.	.	.	.	8dd\	8dd\	.	.
2r	.	4r	.	4r	.	(8ff\L	.	4r	.	4r	.	.	.	8ff\L	.	.	2r	.	2r	.	2r	8ff\L	8ff\L	2r	.
.	.	.	.	.	.	8ee-\	.	.	.	.	.	.	.	8ee-\J	.	.	.	.	.	.	.	(8ee-\	(8ee-\	.	.
.	.	4A-/	.	(8a-/L	.	8cc\	.	4A-\	-bis	4c\	-bis	4f\	-bis	8cc\L	-bis	.	.	.	.	.	.	8cc\)	8cc\	.	.
.	.	.	.	8f/J)	.	8a-\J)	.	.	.	.	.	.	.	8a-\J	.	.	.	.	.	.	.	8a-\J	8a-\J)	.	.
!	!	!	!	!	!	!	!	!	!	!	!	!	!	!	!	!	!	!	!	!	!	!LO:LB:g=original	!	!	!
=86	=86	=86	=86	=86	=86	=86	=86	=86	=86	=86	=86	=86	=86	=86	=86	=86	=86	=86	=86	=86	=86	=86	=86	=86	=86
4BB-/	.	4B-/	.	4r	.	4r	.	2B-\	pa-	(2B-\	pa-	(2e-\	pa-	(2g/	pa-	.	2g/	.	2ee-\	.	2g/	2g/	2g/	2ee-\	.
4r	.	4r	.	4e-/	.	4g/	.	.	.	.	.	.	.	.	.	.	.	.	.	.	.	.	.	.	.
!	!	!	!	!	!	!	!	!	!	!	!	!	!	!	!	!	!	!	!	!	!	!LO:TX:a:i:t=Solo	!	!	!
4BB-/	.	4B-/	.	4r	.	4r	.	2BB-/	.	2A-\)	.	2d\)	.	2f/)	.	.	2b-/	.	2ff\	.	2f/	2f/	2f/	2ff\	.
4r	.	4r	.	4d/	.	4f/	.	.	.	.	.	.	.	.	.	.	.	.	.	.	.	.	.	.	.
=87	=87	=87	=87	=87	=87	=87	=87	=87	=87	=87	=87	=87	=87	=87	=87	=87	=87	=87	=87	=87	=87	=87	=87	=87	=87
*	*	*	*	*tremolo	*	*tremolo	*	*	*	*	*	*	*	*	*	*	*	*	*	*	*	*	*	*	*
4E-\	.	2E-/	.	(8e-/L	.	(8g/L	.	2E-\	-cem	2G/	-cem	2B-/	-cem	2e-/	-cem	.	4g/	.	4ee-\	.	4g/	(8ee-\L	8ee-\L	4ee-\	.
.	.	.	.	8B-/	.	8B-/	.	.	.	.	.	.	.	.	.	.	.	.	.	.	.	8bb-\J)	8bb-\J	.	.
4r	.	.	.	8e-/	.	8g/	.	.	.	.	.	.	.	.	.	.	4r	.	4r	.	4r	2bb-\	2bb-\	4r	.
.	.	.	.	8B-/J)	.	8B-/J)	.	.	.	.	.	.	.	.	.	.	.	.	.	.	.	.	.	.	.
4E-\	.	2e-\	.	(8e-/L	.	(8g/L	.	2r	.	2r	.	2r	.	2r	.	.	2r	.	2r	.	2r	.	.	2r	.
.	.	.	.	8B-/	.	8B-/	.	.	.	.	.	.	.	.	.	.	.	.	.	.	.	.	.	.	.
4r	.	.	.	8e-/	.	8g/	.	.	.	.	.	.	.	.	.	.	.	.	.	.	.	(8gg\L	8gg\L	.	.
.	.	.	.	8B-/J)	.	8B-/J)	.	.	.	.	.	.	.	.	.	.	.	.	.	.	.	8ee-\J)	8ee-\J	.	.
!	!	!	!	!	!	!	!	!	!	!	!	!	!	!LO:LB:g=original	!	!	!	!	!	!	!	!	!	!	!
=88	=88	=88	=88	=88	=88	=88	=88	=88	=88	=88	=88	=88	=88	=88	=88	=88	=88	=88	=88	=88	=88	=88	=88	=88	=88
*	*	*	*	*	*	*^	*	*	*	*	*	*	*	*	*	*	*	*	*	*	*	*	*	*	*
!LO:TX:a:i:t=Tasto	!	!	!	!	!	!	!	!	!	!	!	!	!	!	!	!	!	!	!	!LO:TX:a:i:t=Solo	!	!	!	!	!	!
.	.	.	.	.	.	.	.	.	.	.	.	.	.	.	.	.	.	.	.	.	.	.	8qqee-/	8qqff/	.	.
*	*	*	*	*	*	*	*cue	*	*	*	*	*	*	*	*	*	*	*	*	*	*	*	*	*	*	*
!	!	!	!	!	!	!	!	!	!	!	!	!	!	!	!	!	!	!LO:TX:a:t=3	!	!	!	!LO:TX:a:t=3	!	!	!	!
4BB-/	.	4B-/	.	(8f/L	.	(<8a-/L	8ff/L	.	2.B-\	do-	2.f\	do-	2.a-\	do-	2.dd\	do-	.	0r	.	8ff\L	.	0r	4dd\	4dd\	8ff\L	.
.	.	.	.	8d/	.	8B-/	8bb-/J	.	.	.	.	.	.	.	.	.	.	.	.	8bb-\J	.	.	.	.	8bb-\J	.
4r	.	4r	.	8f/	.	8a-/	2bb-/	.	.	.	.	.	.	.	.	.	.	.	.	2bb-\	.	.	2dd\	2dd\	2bb-\	.
.	.	.	.	8d/J)	.	8B-/J)	.	.	.	.	.	.	.	.	.	.	.	.	.	.	.	.	.	.	.	.
4BB-/	.	4B-/	.	(8f/L	.	(<8a-/L	.	.	.	.	.	.	.	.	.	.	.	.	.	.	.	.	.	.	.	.
.	.	.	.	8d/	.	8B-/	.	.	.	.	.	.	.	.	.	.	.	.	.	.	.	.	.	.	.	.
4r	.	4r	.	8f/	.	8a-/	8aa-/L	.	4B-\	-na	4f\	-na	4a-\	-na	4dd\	-na	.	.	.	8aa-\L	.	.	(8ff\L	8ff\L	8aa-\L	.
.	.	.	.	8d/J)	.	8B-/J)	8ff/J	.	.	.	.	.	.	.	.	.	.	.	.	8ff\J	.	.	8dd\J)	8dd\J	8ff\J	.
!	!	!	!	!LO:LB:g=original	!	!	!	!	!LO:LB:g=original	!	!	!	!	!	!	!	!	!	!	!LO:LB:g=original	!	!	!	!	!	!
=89	=89	=89	=89	=89	=89	=89	=89	=89	=89	=89	=89	=89	=89	=89	=89	=89	=89	=89	=89	=89	=89	=89	=89	=89	=89	=89
4E-\	.	4B-/	.	(8e-/L	.	(<8g/L	4ee-/	.	4E-\	no-	4B-\	no-	4g\	no-	8ee-\L	no-	.	.	.	4ee-\	.	.	(8ee-\L	8ee-\L	4ee-\	.
.	.	.	.	8B-/	.	8B-/	.	.	.	.	.	.	.	.	8b-\J	.	.	.	.	.	.	.	8bb-\J)	8bb-\J	.	.
4r	.	4r	.	8e-/	.	8g/	4rgg	.	4E-\	-bis	4B-\	-bi	4g\	-bis	4b-\	-bis	.	.	.	4r	.	.	2bb-\	2bb-\	4r	.
.	.	.	.	8B-/J)	.	8B-/J)	.	.	.	.	.	.	.	.	.	.	.	.	.	.	.	.	.	.	.	.
4E-\	.	4B-/	.	(8e-/L	.	(<8g/L	4rgg	.	2r	.	2r	.	2r	.	2r	.	.	.	.	2r	.	.	.	.	2r	.
.	.	.	.	8B-/	.	8B-/	.	.	.	.	.	.	.	.	.	.	.	.	.	.	.	.	.	.	.	.
4r	.	4r	.	8e-/	.	8g/	4rgg	.	.	.	.	.	.	.	.	.	.	.	.	.	.	.	(8gg\L	(8gg\L	.	.
.	.	.	.	8B-/J)	.	8B-/J)	.	.	.	.	.	.	.	.	.	.	.	.	.	.	.	.	8ee-\J)	8ee-\J)	.	.
=90	=90	=90	=90	=90	=90	=90	=90	=90	=90	=90	=90	=90	=90	=90	=90	=90	=90	=90	=90	=90	=90	=90	=90	=90	=90	=90
4E-\	.	4B-/	.	(8e-/L	.	(<8g/L	8ee-/L	.	1E-	pa-	1B-	pa-	1g	pa-	1dd-X	pa-	.	1r	.	8ee-\L	.	1r	8ee-\L	8ee-\L	8ee-\L	.
.	.	.	.	8B-/	.	8B-/	8bb-/J	.	.	.	.	.	.	.	.	.	.	.	.	8bb-\J	.	.	8dd-X\J	8dd-X\J	8bb-\J	.
4r	.	4r	.	8e-/	.	8g/	2bb-/	.	.	.	.	.	.	.	.	.	.	.	.	2bb-\	.	.	2dd-\	2dd-\	2bb-\	.
.	.	.	.	8B-/J)	.	8B-/J)	.	.	.	.	.	.	.	.	.	.	.	.	.	.	.	.	.	.	.	.
4E-\	.	4e-\	.	(8e-/L	.	(<8g/L	.	.	.	.	.	.	.	.	.	.	.	.	.	.	.	.	.	.	.	.
.	.	.	.	8B-/	.	8B-/	.	.	.	.	.	.	.	.	.	.	.	.	.	.	.	.	.	.	.	.
4r	.	4r	.	8e-/	.	8g/	8gg/L	.	.	.	.	.	.	.	.	.	.	.	.	8gg\L	.	.	4gg\	4aa-\	8gg\L	.
.	.	.	.	8B-/J)	.	8B-/J)	8ee-/J	.	.	.	.	.	.	.	.	.	.	.	.	8ee-\J	.	.	.	.	8ee-\J	.
*	*	*	*	*Xtremolo	*	*Xtremolo	*Xcue	*	*	*	*	*	*	*	*	*	*	*	*	*	*	*	*	*	*	*
*	*	*	*	*	*	*v	*v	*	*	*	*	*	*	*	*	*	*	*	*	*	*	*	*	*	*	*
!	!	!	!	!	!	!	!	!	!	!LO:LB:g=original	!	!	!	!	!	!	!	!	!	!	!	!	!LO:LB:g=original	!	!
=91	=91	=91	=91	=91	=91	=91	=91	=91	=91	=91	=91	=91	=91	=91	=91	=91	=91	=91	=91	=91	=91	=91	=91	=91	=91
!LO:TX:a:i:t=Tutti	!	!	!	!	!LO:DY:a:rj:t=for	!	!LO:DY:b:t=for	!	!	!	!	!	!	!	!	!	!	!	!	!LO:DY:a:t=fo	!	!	!	!	!LO:DY:a:t=for
4A-\	.	4A-/	.	(8c/L	f	8cc|\	f	2A-X\	-cem	2e-\	-cem	2a-X\	-cem	2cc\	-cem	.	4e-/	.	4ee-\	f	8ee-\	8ccc\	8ccc\	4ee-\	f
.	.	.	.	8e-/	.	(4ee-\	.	.	.	.	.	.	.	.	.	.	.	.	.	.	4ee-\	4ccc\	4ccc\	.	.
4A-\	.	4A-/	.	8a-/	.	.	.	.	.	.	.	.	.	.	.	.	4e-/	.	4ee-\	.	.	.	.	4ee-\	.
.	.	.	.	8e-/J)	.	4aa-X\	.	.	.	.	.	.	.	.	.	.	.	.	.	.	4ee-\	4ccc\	4ccc\	.	.
4A-\	.	4A-/	.	(8c/L	.	.	.	4A-\	do-	4e-\	do-	4a-\	do-	4cc\	do-	.	4e-/	.	4ee-\	.	.	.	.	4ee-\	.
.	.	.	.	8e-/	.	4ccc\)	.	.	.	.	.	.	.	.	.	.	.	.	.	.	4ee-\	4ccc\	4ccc\	.	.
4A-\	.	4A-/	.	8a-/	.	.	.	4A-\	-na	4e-\	-na	4a-\	-na	4cc\	-na	.	4e-/	.	4ee-\	.	.	.	.	4ee-\	.
.	.	.	.	8e-/J)	.	8aa-|\	.	.	.	.	.	.	.	.	.	.	.	.	.	.	8ee-\	8ccc\	8ccc\	.	.
!LO:LB:g=original	!	!	!	!	!	!LO:LB:g=original	!	!	!	!	!	!	!	!	!	!	!	!	!	!	!	!	!	!	!
=92	=92	=92	=92	=92	=92	=92	=92	=92	=92	=92	=92	=92	=92	=92	=92	=92	=92	=92	=92	=92	=92	=92	=92	=92	=92
4G\	.	4G/	.	(8c/L	.	8bb-|\	.	2G\	no-	2c\	no-	2b-\	no-	2een\	no-	.	4gg\	.	4bb-\	.	2eeX\	2bb-\	2bb-\	4bb-\	.
.	.	.	.	8en/	.	(4gg\	.	.	.	.	.	.	.	.	.	.	.	.	.	.	.	.	.	.	.
4G\	.	4G/	.	8g/	.	.	.	.	.	.	.	.	.	.	.	.	4gg\	.	4bb-\	.	.	.	.	4bb-\	.
.	.	.	.	8e/J)	.	4een\	.	.	.	.	.	.	.	.	.	.	.	.	.	.	.	.	.	.	.
!	!	!	!	!	!	!	!	!	!	!	!	!	!	!	!	!	!	!	!	!	!LO:LB:g=original	!	!	!	!
4G\	.	4G/	.	(8c/L	.	.	.	2G\	-bis	2c\	-bis	2b-\	-bis	2ee\	-bis	.	4gg\	.	4bb-\	.	2ee\	2bb-\	2bb-\	4bb-\	.
.	.	.	.	8e/	.	4b-\)	.	.	.	.	.	.	.	.	.	.	.	.	.	.	.	.	.	.	.
4G\	.	4G/	.	8g/	.	.	.	.	.	.	.	.	.	.	.	.	4gg\	.	4bb-\	.	.	.	.	4bb-\	.
.	.	.	.	8e/J)	.	8g|>/	.	.	.	.	.	.	.	.	.	.	.	.	.	.	.	.	.	.	.
!	!	!LO:LB:g=original	!	!	!	!	!	!	!	!	!	!LO:LB:g=original	!	!	!	!	!	!	!	!	!	!LO:LB:g=original	!	!LO:LB:g=original	!
=93	=93	=93	=93	=93	=93	=93	=93	=93	=93	=93	=93	=93	=93	=93	=93	=93	=93	=93	=93	=93	=93	=93	=93	=93	=93
4F\	.	4F/	.	(8c/L	.	8f|>/	.	2F\	pa-	2c\	pa-	2a-X\	pa-	2ff\	pa-	.	4ff\	.	4aa-\	.	2ff\	2aa-X\	2aa-X\	4aa-\	.
.	.	.	.	8f/	.	(4a-\	.	.	.	.	.	.	.	.	.	.	.	.	.	.	.	.	.	.	.
4F\	.	4A-/	.	8a-/	.	.	.	.	.	.	.	.	.	.	.	.	4ff\	.	4aa-\	.	.	.	.	4aa-\	.
.	.	.	.	8f/J)	.	4cc\	.	.	.	.	.	.	.	.	.	.	.	.	.	.	.	.	.	.	.
4F\	.	4c/	.	8A-X/L	.	.	.	2F\	-cem	2c\	-cem	2a-\	-cem	2ff\	-cem	.	4ff\	.	4aa-\	.	2ff\	2aa-\	2aa-\	4aa-\	.
.	.	.	.	8c/	.	4ff\)	.	.	.	.	.	.	.	.	.	.	.	.	.	.	.	.	.	.	.
4F\	.	4A-/	.	8f/	.	.	.	.	.	.	.	.	.	.	.	.	4ff\	.	4aa-\	.	.	.	.	4aa-\	.
.	.	.	.	8c/J	.	8aa-'\	.	.	.	.	.	.	.	.	.	.	.	.	.	.	.	.	.	.	.
!	!	!	!	!LO:LB:g=original	!	!	!	!	!	!	!	!	!	!	!	!	!	!	!	!	!	!	!	!	!
=94	=94	=94	=94	=94	=94	=94	=94	=94	=94	=94	=94	=94	=94	=94	=94	=94	=94	=94	=94	=94	=94	=94	=94	=94	=94
!	!	!	!	!	!	!	!	!	!	!	!	!	!	!	!	!	!	!	!	!	!LO:TX:t=P:problem:takt zapisany repetycją	!	!	!	!
4D\	.	4B-/	.	(8B-/L	.	8aa-'\	.	1D	pa-	1B-	pa-	1a-	pa-	1ff	pa-	.	2b-/	.	2ff\	.	2ff\yy	2aa-\	2aa-\	2ff\	.
.	.	.	.	8d/	.	(4ff\	.	.	.	.	.	.	.	.	.	.	.	.	.	.	.	.	.	.	.
4D\	.	4B-/	.	8f/	.	.	.	.	.	.	.	.	.	.	.	.	.	.	.	.	.	.	.	.	.
.	.	.	.	8d/J)	.	4dd\	.	.	.	.	.	.	.	.	.	.	.	.	.	.	.	.	.	.	.
4D\	.	4B-/	.	(8B-/L	.	.	.	.	.	.	.	.	.	.	.	.	2b-/	.	2ff\	.	2ff\yy	2aa-\	2aa-\	2ff\	.
.	.	.	.	8d/	.	4b-\)	.	.	.	.	.	.	.	.	.	.	.	.	.	.	.	.	.	.	.
4D\	.	4B-/	.	8f/	.	.	.	.	.	.	.	.	.	.	.	.	.	.	.	.	.	.	.	.	.
.	.	.	.	8d/J)	.	8a-X|/	.	.	.	.	.	.	.	.	.	.	.	.	.	.	.	.	.	.	.
!	!	!	!	!	!	!	!	!	!	!	!	!	!	!	!	!	!LO:LB:g=original	!	!	!	!	!	!	!	!
=95	=95	=95	=95	=95	=95	=95	=95	=95	=95	=95	=95	=95	=95	=95	=95	=95	=95	=95	=95	=95	=95	=95	=95	=95	=95
4E-\	.	4B-/	.	(8e-/L	.	(8g/L	.	2E-\	.	2B-\	.	2g\	.	1ee-	.	.	4g/	.	4ee-\	.	4ee-\	(8gg\L	8gg\L	4ee-\	.
.	.	.	.	8d/)	.	8f#X/)	.	.	.	.	.	.	.	.	.	.	.	.	.	.	.	8ff\)	8ff\	.	.
4E-\	.	4B-/	.	8e-'/	.	8g'/	.	.	.	.	.	.	.	.	.	.	4ee-\	.	4gg\	.	8ee-\L	8gg\|	8gg\	4gg\	.
.	.	.	.	8e-'/J	.	8g'/J	.	.	.	.	.	.	.	.	.	.	.	.	.	.	8ee-\J	8gg\J|	8gg\J	.	.
4F\	.	4e-\	.	(8c/L	.	(8an/L	.	2F\	.	4e-\	.	2an\	.	.	.	.	4ff\	.	4ff\	.	4ee-\	8aa\L	8aa-\L	4ff\	.
.	.	.	.	8B-/)	.	8g/)	.	.	.	.	.	.	.	.	.	.	.	.	.	.	.	(8gg\	8gg\	.	.
4F\	.	4e-\	.	8c'/	.	8a'/	.	.	.	4c\	-cem	.	.	.	.	.	4ff\	.	4ff\	.	8ee-\L	8aa\)|	8aa-\	4ff\	.
.	.	.	.	8c'/J	.	8a'/J	.	.	.	.	.	.	.	.	.	.	.	.	.	.	8ee-\J	8aa\J|	8aa-\J	.	.
=96	=96	=96	=96	=96	=96	=96	=96	=96	=96	=96	=96	=96	=96	=96	=96	=96	=96	=96	=96	=96	=96	=96	=96	=96	=96
8.B-\L	.	8B-/L	.	8.d/L	.	8.b-/L	.	4B-\	.	2B-\	pa-	2f\	.	2dd\	-cem	.	4b-/	.	4ff\	.	8.dd\L	8.bb-\L	8bb-\L	4ff\	.
.	.	8F/	.	.	.	.	.	.	.	.	.	.	.	.	.	.	.	.	.	.	.	.	8aan\	.	.
16F\K	.	.	.	16e-/K	.	16an/K	.	.	.	.	.	.	.	.	.	.	.	.	.	.	16cc\K	16aa\K	.	.	.
8.B-\	.	8F/	.	8.d/	.	8.b-/	.	4F\	.	.	.	.	.	.	.	.	4r	.	4r	.	8.dd\	8.bb-\	8bb-\	4r	.
.	.	8F/J	.	.	.	.	.	.	.	.	.	.	.	.	.	.	.	.	.	.	.	.	8aa\J	.	.
16F\Jk	.	.	.	16e-/Jk	.	16a/Jk	.	.	.	.	.	.	.	.	.	.	.	.	.	.	16cc\Jk	16aa\Jk	.	.	.
4BB-/	.	4F/	.	4d/	.	4b-/	.	4BB-/	-cem	4B-\	-cem	4f\	-cem	2r	.	.	4b-/	.	4ff\	.	4dd\	4bb-\	4bb-\	4ff\	.
!	!	!	!	!	!	!	!	!	!	!	!	!	!	!	!	!	!	!	!	!	!	!LO:TX:a:i:t=Solo	!	!	!
4r	.	4r	.	4r	.	8b-/	.	4r	.	4r	.	4r	.	.	.	.	4b-/	.	4r	.	4r	4r	4r	4r	.
.	.	.	.	.	.	8r	.	.	.	.	.	.	.	.	.	.	.	.	.	.	.	.	.	.	.
!	!	!	!	!	!	!	!	!	!	!	!	!	!	!	!	!	!	!	!	!	!	!	!LO:LB:g=original	!	!
=97	=97	=97	=97	=97	=97	=97	=97	=97	=97	=97	=97	=97	=97	=97	=97	=97	=97	=97	=97	=97	=97	=97	=97	=97	=97
!LO:TX:a:i:t=Tasto	!	!LO:TX:a:i:t=Solo	!	!	!LO:DY:a:t=pio	!	!LO:DY:a:t=piu	!	!	!	!	!	!	!LO:SIC:v:l:s=do-	!	!	!	!LO:DY:a:t=po	!	!LO:DY:a:t=p&colon;	!	!	!	!	!LO:DY:t=pio
4BB-/	.	4B-/	.	4d/	p	4f/	p	1B-	do-	1f	Do-	1a-	do-	1dd	da-	.	1b-	p	1ff	p	1d	8dd\L	8dd\L	1ff	p
.	.	.	.	.	.	.	.	.	.	.	.	.	.	.	.	.	.	.	.	.	.	8aa-X\J	8aa-X\J	.	.
4r	.	4r	.	4r	.	4r	.	.	.	.	.	.	.	.	.	.	.	.	.	.	.	4.aa-\	4.bb-\	.	.
*	*	*	*	*tremolo	*	*tremolo	*	*	*	*	*	*	*	*	*	*	*	*	*	*	*	*	*	*	*
!	!LO:DY:a:t=pio	!	!	!	!	!	!	!	!	!	!	!	!	!	!	!	!	!	!	!	!	!	!	!	!
2r	p	2r	.	(8d/L	.	(8f/L	.	.	.	.	.	.	.	.	.	.	.	.	.	.	.	.	.	.	.
.	.	.	.	8B-/	.	8d/	.	.	.	.	.	.	.	.	.	.	.	.	.	.	.	8ff\	8ff\	.	.
.	.	.	.	8d/	.	8f/	.	.	.	.	.	.	.	.	.	.	.	.	.	.	.	(8dd\L	(8dd\L	.	.
.	.	.	.	8B-/J)	.	8d/J)	.	.	.	.	.	.	.	.	.	.	.	.	.	.	.	8a-\J)	8a-\J)	.	.
*	*	*	*	*Xtremolo	*	*Xtremolo	*	*	*	*	*	*	*	*	*	*	*	*	*	*	*	*	*	*	*
!	!	!	!	!	!	!	!	!	!	!	!	!	!	!	!	!	!	!	!LO:LB:g=original	!	!	!	!	!	!
=98	=98	=98	=98	=98	=98	=98	=98	=98	=98	=98	=98	=98	=98	=98	=98	=98	=98	=98	=98	=98	=98	=98	=98	=98	=98
*	*	*	*	*	*	*^	*	*	*	*	*	*	*	*	*	*	*	*	*	*	*	*	*	*	*
*	*	*	*	*	*	*	*cue	*	*	*	*	*	*	*	*	*	*	*	*	*	*	*	*	*	*	*
!	!	!	!	!	!	!	!	!	!	!	!	!	!	!	!	!	!	!	!	!LO:TX:a:i:t=Solo	!	!	!	!	!LO:TX:a:i:t=Solo	!
4E-\	.	4B-/	.	4e-/	.	4g/	8ee-/L	.	2E-\	-na	2B-\	-na	2g\	-na	2ee-\	-na	.	1g	.	(8ee-\L	.	1e-	4g/	4g/	8ee-\L	.
.	.	.	.	.	.	.	8bb-/J	.	.	.	.	.	.	.	.	.	.	.	.	8bb-\J)	.	.	.	.	8bb-\J	.
4r	.	4r	.	4r	.	4rg	2bb-/	.	.	.	.	.	.	.	.	.	.	.	.	2bb-\	.	.	4r	4r	2bb-\	.
*	*	*	*	*tremolo	*	*tremolo	*	*	*	*	*	*	*	*	*	*	*	*	*	*	*	*	*	*	*	*
2r	.	2r	.	8e-/L	.	(<8e-/L	.	.	2r	.	2r	.	2r	.	2r	.	.	.	.	.	.	.	2r	2r	.	.
.	.	.	.	8B-/	.	8B-/	.	.	.	.	.	.	.	.	.	.	.	.	.	.	.	.	.	.	.	.
.	.	.	.	8e-/	.	8e-/	8gg/L	.	.	.	.	.	.	.	.	.	.	.	.	8gg\L	.	.	.	.	8gg\L	.
.	.	.	.	8B-/J	.	8B-/J)	8ee-/J	.	.	.	.	.	.	.	.	.	.	.	.	8ee-\J	.	.	.	.	8ee-\J	.
*	*	*	*	*Xtremolo	*	*Xtremolo	*	*	*	*	*	*	*	*	*	*	*	*	*	*	*	*	*	*	*	*
*	*	*	*	*	*	*v	*v	*	*	*	*	*	*	*	*	*	*	*	*	*	*	*	*	*	*	*
!	!	!	!	!	!	!LO:LB:g=original	!	!LO:LB:g=original	!	!	!	!	!	!LO:LB:g=original	!	!	!	!	!	!	!	!	!	!	!
=99	=99	=99	=99	=99	=99	=99	=99	=99	=99	=99	=99	=99	=99	=99	=99	=99	=99	=99	=99	=99	=99	=99	=99	=99	=99
4BB-/	.	4B-/	.	4d/	.	4f/	.	1B-	no-	1f	no-	1a-	no-	1dd	no-	.	1b-	.	1ff	.	1d	(8dd\L	(8dd\L	1ff	.
.	.	.	.	.	.	.	.	.	.	.	.	.	.	.	.	.	.	.	.	.	.	8aa-\J)	8aa-\J)	.	.
4r	.	4r	.	4r	.	4r	.	.	.	.	.	.	.	.	.	.	.	.	.	.	.	4.aa-\	4.aa-\	.	.
!	!	!	!	!LO:LB:g=original	!	!	!	!	!	!	!	!	!	!	!	!	!	!	!	!	!	!	!	!	!
*	*	*	*	*tremolo	*	*tremolo	*	*	*	*	*	*	*	*	*	*	*	*	*	*	*	*	*	*	*
2r	.	2r	.	(8d/L	.	(8f/L	.	.	.	.	.	.	.	.	.	.	.	.	.	.	.	.	.	.	.
*	*	*	*	*	*	*	*	*	*	*	*	*	*	*	*	*	*	*	*	*	*	*Xtuplet	*Xtuplet	*	*
!	!	!	!	!	!	!	!	!	!	!	!	!	!	!	!	!	!	!	!	!	!	!LO:TUP:a:problem:klamra łukowa	!LO:TUP:a:problem:klamra łukowa	!	!
.	.	.	.	8B-/	.	8d/	.	.	.	.	.	.	.	.	.	.	.	.	.	.	.	24gg\LL	24gg\LL	.	.
.	.	.	.	.	.	.	.	.	.	.	.	.	.	.	.	.	.	.	.	.	.	24ff\	24ff\	.	.
.	.	.	.	.	.	.	.	.	.	.	.	.	.	.	.	.	.	.	.	.	.	24ee-\JJ	24ee-\JJ	.	.
.	.	.	.	8d/	.	8f/	.	.	.	.	.	.	.	.	.	.	.	.	.	.	.	(16dd\LL	(16dd\LL	.	.
.	.	.	.	.	.	.	.	.	.	.	.	.	.	.	.	.	.	.	.	.	.	16cc\	16cc\	.	.
.	.	.	.	8B-/J)	.	8d/J)	.	.	.	.	.	.	.	.	.	.	.	.	.	.	.	16b-\)	16b-\	.	.
.	.	.	.	.	.	.	.	.	.	.	.	.	.	.	.	.	.	.	.	.	.	16a-\JJ	16a-\JJ)	.	.
*	*	*	*	*Xtremolo	*	*Xtremolo	*	*	*	*	*	*	*	*	*	*	*	*	*	*	*	*	*	*	*
!	!	!	!	!	!	!	!	!	!	!	!	!	!	!	!	!	!	!	!	!	!	!LO:LB:g=original	!	!	!
=100	=100	=100	=100	=100	=100	=100	=100	=100	=100	=100	=100	=100	=100	=100	=100	=100	=100	=100	=100	=100	=100	=100	=100	=100	=100
4E-\	.	4B-/	.	4e-/	.	4g/	.	2E-\	-bis	2A-\	-bis	2g\	-bis	2ee-\	-bis	.	1g	.	1ee-	.	8c\L	4e-/	4e-/	1ee-	.
.	.	.	.	.	.	.	.	.	.	.	.	.	.	.	.	.	.	.	.	.	8b-\J	.	.	.	.
4r	.	4r	.	4r	.	4r	.	.	.	.	.	.	.	.	.	.	.	.	.	.	4.b-\	4r	4r	.	.
*	*	*	*	*tremolo	*	*tremolo	*	*	*	*	*	*	*	*	*	*	*	*	*	*	*	*	*	*	*
2r	.	2r	.	(8e-/L	.	(8e-/L	.	2r	.	2r	.	2r	.	2r	.	.	.	.	.	.	.	2r	2r	.	.
.	.	.	.	8B-/	.	8B-/	.	.	.	.	.	.	.	.	.	.	.	.	.	.	8cc\	.	.	.	.
.	.	.	.	8e-/	.	8e-/	.	.	.	.	.	.	.	.	.	.	.	.	.	.	8dd\L	.	.	.	.
.	.	.	.	8B-/J)	.	8B-/J)	.	.	.	.	.	.	.	.	.	.	.	.	.	.	8ee-\J	.	.	.	.
*	*	*	*	*	*	*Xtremolo	*	*	*	*	*	*	*	*	*	*	*	*	*	*	*	*	*	*	*
!LO:LB:g=original	!	!LO:LB:g=original	!	!	!	!	!	!	!	!LO:LB:g=original	!	!	!	!	!	!	!	!	!	!	!	!	!	!	!
=101	=101	=101	=101	=101	=101	=101	=101	=101	=101	=101	=101	=101	=101	=101	=101	=101	=101	=101	=101	=101	=101	=101	=101	=101	=101
*	*	*tremolo	*	*tremolo	*	*	*	*	*	*	*	*	*	*	*	*	*	*	*	*	*	*	*	*	*
!LO:TX:a:i:t=Tutti	!	!	!	!	!LO:DY:a:t=for	!	!LO:DY:a:t=for	!	!	!	!	!	!	!	!	!	!	!	!	!	!	!	!	!	!
8A-\L	.	8c\L	.	8e-/L	f	4cc\	f	2A-\	do-	2c\	do-	2e-\	do-	2cc\	do-	.	1e-	.	1ee-	.	1e-	2cc\	2cc\	1ee-	.
8A-\	.	8c\	.	8e-/	.	.	.	.	.	.	.	.	.	.	.	.	.	.	.	.	.	.	.	.	.
8A-\	.	8c\	.	8e-/	.	4cc\	.	.	.	.	.	.	.	.	.	.	.	.	.	.	.	.	.	.	.
8A-\J	.	8c\J	.	8e-/J	.	.	.	.	.	.	.	.	.	.	.	.	.	.	.	.	.	.	.	.	.
*tremolo	*	*	*	*	*	*	*	*	*	*	*	*	*	*	*	*	*	*	*	*	*	*	*	*	*
8G\L	.	8B-\L	.	8e-/L	.	(8ee-\L	.	2G\	-na	2e-\	-na	2e-\	-na	2b-\	-na	.	.	.	.	.	.	2b-\	2b-\	.	.
8G\	.	8B-\	.	8e-/	.	8cc\J)	.	.	.	.	.	.	.	.	.	.	.	.	.	.	.	.	.	.	.
8G\	.	8B-\	.	8e-/	.	4b-\	.	.	.	.	.	.	.	.	.	.	.	.	.	.	.	.	.	.	.
8G\J	.	8B-\J	.	8e-/J	.	.	.	.	.	.	.	.	.	.	.	.	.	.	.	.	.	.	.	.	.
*Xtremolo	*	*Xtremolo	*	*Xtremolo	*	*	*	*	*	*	*	*	*	*	*	*	*	*	*	*	*	*	*	*	*
=102	=102	=102	=102	=102	=102	=102	=102	=102	=102	=102	=102	=102	=102	=102	=102	=102	=102	=102	=102	=102	=102	=102	=102	=102	=102
4F\	.	4r	.	4f/	.	8b-\L	.	2D\	no-	2B-\	no-	2f\	no-	2a-\	no-	.	4r	.	4r	.	4r	4r	4r	4r	.
.	.	.	.	.	.	8an\J	.	.	.	.	.	.	.	.	.	.	.	.	.	.	.	.	.	.	.
!	!	!	!	!	!	!	!	!	!	!	!	!	!	!	!	!	!	!	!	!	!LO:SIC:v:s=2a-\	!	!	!	!
8D\L	.	4d\	.	4.f/	.	4.ff\	.	.	.	.	.	.	.	.	.	.	2b-/	.	2ff\	.	2a\	2ff\	2ff\	2ff\	.
8D\	.	.	.	.	.	.	.	.	.	.	.	.	.	.	.	.	.	.	.	.	.	.	.	.	.
8D\	.	4d\	.	.	.	.	.	2E-\	-bis	2B-\	-bis	2e-\	-bis	2g\	-bis	.	.	.	.	.	.	.	.	.	.
8D\J	.	.	.	8d/	.	8a-X/	.	.	.	.	.	.	.	.	.	.	.	.	.	.	.	.	.	.	.
!	!	!	!	!	!	!LO:TX:t=P:problem:mixed beam	!	!	!	!	!	!	!	!	!	!	!	!	!	!	!	!	!	!	!
8E-\L	.	4e-\	.	8e-/L	.	8g/L	.	.	.	.	.	.	.	.	.	.	4ee-\	.	4aa-\	.	4g\	4ee-\	4ee-\	4aa-\	.
8E-\J	.	.	.	8g/J	.	8ee-\J	.	.	.	.	.	.	.	.	.	.	.	.	.	.	.	.	.	.	.
!	!	!	!	!	!	!	!	!	!	!	!	!	!	!	!	!	!	!	!	!	!LO:LB:g=original	!	!	!LO:LB:g=original	!
=103	=103	=103	=103	=103	=103	=103	=103	=103	=103	=103	=103	=103	=103	=103	=103	=103	=103	=103	=103	=103	=103	=103	=103	=103	=103
4r	.	4r	.	4c/	.	(8g/L	.	2A-\	pa-	2A-\	pa-	2.c/	pa-	(8g\L	pa-	.	4r	.	4aa-\	.	4r	4r	4r	4aa-\	.
.	.	.	.	.	.	8f/	.	.	.	.	.	.	.	8f\	.	.	.	.	.	.	.	.	.	.	.
4A-\	.	4c\	.	4c/	.	8a-/	.	.	.	.	.	.	.	8a-\	.	.	4ff\	.	4aa-\	.	4ff\	4aa-\	4aa-\	4aa-\	.
.	.	.	.	.	.	8cc/J)	.	.	.	.	.	.	.	8cc\J)	.	.	.	.	.	.	.	.	.	.	.
4B-\	.	2B-\	.	4B-/	.	4e-/	.	4B-\	-cem	(4G/	-cem	.	.	4e-/	.	.	4ee-\	.	4gg\	.	4ee-\	4gg\	4gg\	4gg\	.
4BB-/	.	.	.	4B-/	.	4d/	.	4BB-/	.	4F/)	.	4B-/	.	4d/	-cem	.	4b-/	.	4ff\	.	4dd\	4ff\	4ff\	4ff\	.
!	!	!	!	!	!	!	!	!	!	!	!	!LO:LB:g=original	!	!	!	!	!	!	!	!	!	!	!LO:LB:g=original	!	!
=104	=104	=104	=104	=104	=104	=104	=104	=104	=104	=104	=104	=104	=104	=104	=104	=104	=104	=104	=104	=104	=104	=104	=104	=104	=104
4r	.	4B-/	.	4f/	.	8a-X\L	.	2.D\	do-	4B-\	pa-	4f\	-cem	8ff\L	pa-	.	4r	.	4r	.	4r	4r	4r	4r	.
.	.	.	.	.	.	8ff\J	.	.	.	.	.	.	.	8a-\J	.	.	.	.	.	.	.	.	.	.	.
!	!	!	!	!	!	!	!	!	!	!	!	!	!	!	!	!	!	!	!	!	!LO:SIC:v:s=2a-/	!	!	!	!
4F\	.	2B-/	.	4.a-/	.	4.ff\	.	.	.	2B-\	.	2f\	pa-	2a-\	.	.	2b-/	.	2ff\	.	2a/	2ff\	2ff\	2ff\	.
4D\	.	.	.	.	.	.	.	.	.	.	.	.	.	.	.	.	.	.	.	.	.	.	.	.	.
.	.	.	.	8f/	.	8a-/	.	.	.	.	.	.	.	.	.	.	.	.	.	.	.	.	.	.	.
!	!	!	!	!	!	!LO:TX:t=P:problem:mixed beam	!	!	!	!	!	!	!	!	!	!	!	!	!	!	!	!	!	!	!
4E-\	.	4B-/	.	8e-/L	.	8g/L	.	4E-\	-na	4B-\	-cem	4e-\	.	4g\	-cem	.	4g/	.	4ee-\	.	4g/	4ee-\	4ee-\	4ee-\	.
.	.	.	.	8g/J	.	8ee-\J	.	.	.	.	.	.	.	.	.	.	.	.	.	.	.	.	.	.	.
!	!	!	!	!LO:LB:g=original	!	!	!	!	!	!	!	!	!	!	!	!	!	!	!	!	!	!	!	!	!
=105	=105	=105	=105	=105	=105	=105	=105	=105	=105	=105	=105	=105	=105	=105	=105	=105	=105	=105	=105	=105	=105	=105	=105	=105	=105
!	!	!	!LO:DY:a:t=for	!	!	!	!	!	!	!	!	!	!	!	!	!	!	!	!	!	!	!	!	!	!
4A-\	.	4c\	f	4a-/	.	4cc\	.	2A-\	pa-	2B-\	pa-	2a-\	.	(4cc\	pa-	.	4r	.	4r	.	4r	4r	4r	4r	.
*	*	*	*	*	*	*tremolo	*	*	*	*	*	*	*	*	*	*	*	*	*	*	*	*	*	*	*
4A-\	.	8cc\L	.	16ff\LL	.	16aa-\LL	.	.	.	.	.	.	.	4ff\	.	.	4b-/	.	4ff\	.	4ff\	4aa-\	4aa-\	4ff\	.
.	.	.	.	16ff\	.	16aa-\	.	.	.	.	.	.	.	.	.	.	.	.	.	.	.	.	.	.	.
.	.	8cc\J	.	16ff\	.	16aa-\	.	.	.	.	.	.	.	.	.	.	.	.	.	.	.	.	.	.	.
.	.	.	.	16ff\JJ	.	16aa-\JJ	.	.	.	.	.	.	.	.	.	.	.	.	.	.	.	.	.	.	.
*	*	*tremolo	*	*tremolo	*	*	*	*	*	*	*	*	*	*	*	*	*	*	*	*	*	*	*	*	*
4B-\	.	8b-\L	.	16ee-\LL	.	16gg\LL	.	4B-\	-cem	4e-\	.	(4g\	-cem	4ee-\	.	.	4ee-/	.	4gg\	.	4ee-\	4gg\	4gg\	4gg\	.
.	.	.	.	16ee-\	.	16gg\	.	.	.	.	.	.	.	.	.	.	.	.	.	.	.	.	.	.	.
.	.	8b-\	.	16ee-\	.	16gg\	.	.	.	.	.	.	.	.	.	.	.	.	.	.	.	.	.	.	.
.	.	.	.	16ee-\JJ	.	16gg\JJ	.	.	.	.	.	.	.	.	.	.	.	.	.	.	.	.	.	.	.
*	*	*	*	*	*	*Xtremolo	*	*	*	*	*	*	*	*	*	*	*	*	*	*	*	*	*	*	*
!	!	!	!	!	!	!LO:LB:g=original	!	!	!	!	!	!	!	!	!	!	!	!	!	!	!	!	!	!	!
4BB-/	.	8b-\	.	16dd\LL	.	16ff\LL	.	4r	.	4d\	-cem	4f\)	.	4dd\)	-cem	.	4b-/	.	4ff\	.	4dd\	4ff\	4ff\	4ff\	.
.	.	.	.	16dd\	.	16ff\	.	.	.	.	.	.	.	.	.	.	.	.	.	.	.	.	.	.	.
.	.	8b-\J	.	16dd\	.	16ff\	.	.	.	.	.	.	.	.	.	.	.	.	.	.	.	.	.	.	.
.	.	.	.	16dd\JJ	.	16ff\JJ	.	.	.	.	.	.	.	.	.	.	.	.	.	.	.	.	.	.	.
!	!	!	!	!	!	!	!	!	!	!	!	!	!	!	!	!	!LO:LB:g=original	!	!	!	!	!	!	!	!
=106	=106	=106	=106	=106	=106	=106	=106	=106	=106	=106	=106	=106	=106	=106	=106	=106	=106	=106	=106	=106	=106	=106	=106	=106	=106
!	!	!	!	!	!	!	!LO:DY:a:rj	!	!	!	!	!	!	!	!	!	!	!	!	!	!	!	!	!	!
8G\L	.	8e-\L	.	16ee-\LL	.	2.bb-\	ff	2.G\	do-	2.B-\	do-	2.e-\	do-	2.b-\	Do-	.	1e-	.	1ee-	.	2.b-\	1ee-	1ee-	1ee-	.
.	.	.	.	16ee-\	.	.	.	.	.	.	.	.	.	.	.	.	.	.	.	.	.	.	.	.	.
8G\	.	8e-\	.	16ee-\	.	.	.	.	.	.	.	.	.	.	.	.	.	.	.	.	.	.	.	.	.
.	.	.	.	16ee-\	.	.	.	.	.	.	.	.	.	.	.	.	.	.	.	.	.	.	.	.	.
8G\	.	8e-\	.	16ee-\	.	.	.	.	.	.	.	.	.	.	.	.	.	.	.	.	.	.	.	.	.
.	.	.	.	16ee-\	.	.	.	.	.	.	.	.	.	.	.	.	.	.	.	.	.	.	.	.	.
8G\J	.	8e-\J	.	16ee-\	.	.	.	.	.	.	.	.	.	.	.	.	.	.	.	.	.	.	.	.	.
.	.	.	.	16ee-\JJ	.	.	.	.	.	.	.	.	.	.	.	.	.	.	.	.	.	.	.	.	.
*tremolo	*	*	*	*	*	*	*	*	*	*	*	*	*	*	*	*	*	*	*	*	*	*	*	*	*
8G\L	.	8e-\L	.	16ee-\LL	.	.	.	.	.	.	.	.	.	.	.	.	.	.	.	.	.	.	.	.	.
.	.	.	.	16ee-\	.	.	.	.	.	.	.	.	.	.	.	.	.	.	.	.	.	.	.	.	.
8G\	.	8e-\	.	16ee-\	.	.	.	.	.	.	.	.	.	.	.	.	.	.	.	.	.	.	.	.	.
.	.	.	.	16ee-\	.	.	.	.	.	.	.	.	.	.	.	.	.	.	.	.	.	.	.	.	.
8G\	.	8e-\	.	16ee-\	.	4bbn\	.	4G\	-na	8e-\	-na	4e-\	-na	4bn\	-na	.	.	.	.	.	4bX\	.	.	.	.
.	.	.	.	16ee-\	.	.	.	.	.	.	.	.	.	.	.	.	.	.	.	.	.	.	.	.	.
8G\J	.	8e-\J	.	16ee-\	.	.	.	.	.	8r	.	.	.	.	.	.	.	.	.	.	.	.	.	.	.
.	.	.	.	16ee-\JJ	.	.	.	.	.	.	.	.	.	.	.	.	.	.	.	.	.	.	.	.	.
*Xtremolo	*	*Xtremolo	*	*	*	*	*	*	*	*	*	*	*	*	*	*	*	*	*	*	*	*	*	*	*
!LO:LB:g=original	!	!	!	!	!	!	!	!	!	!	!	!	!	!	!	!	!	!	!	!	!	!	!	!	!
=107	=107	=107	=107	=107	=107	=107	=107	=107	=107	=107	=107	=107	=107	=107	=107	=107	=107	=107	=107	=107	=107	=107	=107	=107	=107
*	*	*	*	*	*	*tremolo	*	*	*	*	*	*	*	*	*	*	*	*	*	*	*	*	*	*	*
8A-\L	.	8e-\L	.	16ee-\LL	.	16ccc\LL	.	2A-\	no-	2c\	no-	(4f\	no-	(4cc\	no-	.	4e-/	.	4ee-\	.	4cc\	4ee-\	4ee-\	4ee-\	.
.	.	.	.	16ee-\	.	16ccc\	.	.	.	.	.	.	.	.	.	.	.	.	.	.	.	.	.	.	.
8A-\	.	8e-\	.	16ee-\	.	16ccc\	.	.	.	.	.	.	.	.	.	.	.	.	.	.	.	.	.	.	.
.	.	.	.	16ee-\JJ	.	16ccc\JJ	.	.	.	.	.	.	.	.	.	.	.	.	.	.	.	.	.	.	.
8A-\	.	8g\	.	16dd-X\LL	.	16een\LL	.	.	.	.	.	4b-\)	.	4een\)	.	.	4r	.	4r	.	4r	4r	4r	4r	.
.	.	.	.	16dd-X\	.	16een\	.	.	.	.	.	.	.	.	.	.	.	.	.	.	.	.	.	.	.
8A-\J	.	8g\J	.	16dd-X\	.	16een\	.	.	.	.	.	.	.	.	.	.	.	.	.	.	.	.	.	.	.
.	.	.	.	16dd-X\JJ	.	16een\JJ	.	.	.	.	.	.	.	.	.	.	.	.	.	.	.	.	.	.	.
*tremolo	*	*tremolo	*	*	*	*	*	*	*	*	*	*	*	*	*	*	*	*	*	*	*	*	*	*	*
8A-\L	.	8a-\L	.	16cc\LL	.	16ff\LL	.	2A-\	-bis	2c\	-bis	(4cc\	-bis	(4ff\	-bis	.	4r	.	4r	.	4r	4r	4r	4r	.
.	.	.	.	16cc\	.	16ff\	.	.	.	.	.	.	.	.	.	.	.	.	.	.	.	.	.	.	.
8A-\	.	8a-\	.	16cc\	.	16ff\	.	.	.	.	.	.	.	.	.	.	.	.	.	.	.	.	.	.	.
.	.	.	.	16cc\JJ	.	16ff\JJ	.	.	.	.	.	.	.	.	.	.	.	.	.	.	.	.	.	.	.
8A-\	.	8a-\	.	16ff\LL	.	16aa-X\LL	.	.	.	.	.	4b-\)	.	4aa-X\)	.	.	4ff\	.	4aa-\	.	4ff\	4aa-\	4aa-\	4aa-\	.
.	.	.	.	16ff\	.	16aa-X\	.	.	.	.	.	.	.	.	.	.	.	.	.	.	.	.	.	.	.
8A-\J	.	8a-\J	.	16ff\	.	16aa-X\	.	.	.	.	.	.	.	.	.	.	.	.	.	.	.	.	.	.	.
.	.	.	.	16ff\JJ	.	16aa-X\JJ	.	.	.	.	.	.	.	.	.	.	.	.	.	.	.	.	.	.	.
!	!	!	!	!	!	!	!	!LO:LB:g=original	!	!LO:LB:g=original	!	!	!	!LO:LB:g=original	!	!	!	!	!LO:LB:g=original	!	!	!	!	!	!
=108	=108	=108	=108	=108	=108	=108	=108	=108	=108	=108	=108	=108	=108	=108	=108	=108	=108	=108	=108	=108	=108	=108	=108	=108	=108
8B-\L	.	16b-\LL	.	16ee-\LL	.	16gg\LL	.	2B-\	pa-	(2e-\	pa-	(2b-\	pa-	(2gg\	pa-	.	2ee-\	.	2gg\	.	2ee-\	2gg\	2gg\	2gg\	.
.	.	16b-\	.	16ee-\	.	16gg\	.	.	.	.	.	.	.	.	.	.	.	.	.	.	.	.	.	.	.
8B-\	.	16b-\	.	16ee-\	.	16gg\	.	.	.	.	.	.	.	.	.	.	.	.	.	.	.	.	.	.	.
.	.	16b-\	.	16ee-\	.	16gg\	.	.	.	.	.	.	.	.	.	.	.	.	.	.	.	.	.	.	.
8B-\	.	16b-\	.	16ee-\	.	16gg\	.	.	.	.	.	.	.	.	.	.	.	.	.	.	.	.	.	.	.
.	.	16b-\	.	16ee-\	.	16gg\	.	.	.	.	.	.	.	.	.	.	.	.	.	.	.	.	.	.	.
8B-\J	.	16b-\	.	16ee-\	.	16gg\	.	.	.	.	.	.	.	.	.	.	.	.	.	.	.	.	.	.	.
.	.	16b-\JJ	.	16ee-\JJ	.	16gg\JJ	.	.	.	.	.	.	.	.	.	.	.	.	.	.	.	.	.	.	.
8BB-/L	.	16a-X\LL	.	16dd\LL	.	16ff\LL	.	2BB-/	.	2dn\)	.	2a-\)	.	2ff\)	.	.	2b-/	.	2ff\	.	2dd\	2ff\	2ff\	2ff\	.
.	.	16a-X\	.	16dd\	.	16ff\	.	.	.	.	.	.	.	.	.	.	.	.	.	.	.	.	.	.	.
8BB-/	.	16a-X\	.	16dd\	.	16ff\	.	.	.	.	.	.	.	.	.	.	.	.	.	.	.	.	.	.	.
.	.	16a-X\	.	16dd\	.	16ff\	.	.	.	.	.	.	.	.	.	.	.	.	.	.	.	.	.	.	.
8BB-/	.	16a-X\	.	16dd\	.	16ff\	.	.	.	.	.	.	.	.	.	.	.	.	.	.	.	.	.	.	.
.	.	16a-X\	.	16dd\	.	16ff\	.	.	.	.	.	.	.	.	.	.	.	.	.	.	.	.	.	.	.
8BB-/J	.	16a-X\	.	16dd\	.	16ff\	.	.	.	.	.	.	.	.	.	.	.	.	.	.	.	.	.	.	.
.	.	16a-X\JJ	.	16dd\JJ	.	16ff\JJ	.	.	.	.	.	.	.	.	.	.	.	.	.	.	.	.	.	.	.
*Xtremolo	*	*Xtremolo	*	*Xtremolo	*	*Xtremolo	*	*	*	*	*	*	*	*	*	*	*	*	*	*	*	*	*	*	*
=109	=109	=109	=109	=109	=109	=109	=109	=109	=109	=109	=109	=109	=109	=109	=109	=109	=109	=109	=109	=109	=109	=109	=109	=109	=109
!	!	!	!	!	!	!	!	!	!	!	!	!	!	!	!	!	!	!	!LO:TX:a:i:t=Solo	!	!	!	!	!LO:TX:a:i:rj:t=Solo	!
4E-\	.	4g\	.	4b-\	.	4ee-\	.	4E-\	-cem	4e-\	-cem	4g\	-cem	4ee-\	-cem	.	2.ee-\	.	2.gg\	.	2.g/	4ee-\	4ee-\	2.gg\	.
!	!	!	!	!	!	!	!	!	!	!LO:TX:a:i:t=Solo	!	!	!	!	!	!	!	!	!	!	!	!	!	!	!
4r	.	4r	.	4r	.	4r	.	2e-\	do-	2e-\	do-	2g\	do-	2b-\	do-	.	.	.	.	.	.	2b-\	2b-\	.	.
2r	.	2r	.	2r	.	2r	.	.	.	.	.	.	.	.	.	.	.	.	.	.	.	.	.	.	.
.	.	.	.	.	.	.	.	4d\	-na	4f\	-na	4a-X\	-na	4bn\	-na	.	4ff\	.	4aa-\	.	4a-X/	4bX\	4b#X\	4aa-\	.
!	!	!LO:LB:g=original	!	!	!	!	!	!	!	!	!	!	!	!	!	!	!	!	!	!	!	!LO:LB:g=original	!	!	!
=110	=110	=110	=110	=110	=110	=110	=110	=110	=110	=110	=110	=110	=110	=110	=110	=110	=110	=110	=110	=110	=110	=110	=110	=110	=110
!LO:TX:a:t=6	!	!LO:TX:a:t=6	!	!LO:TX:a:t=6	!	!LO:TX:a:t=6	!	!	!	!	!	!	!	!	!	!	!	!	!	!	!	!	!	!	!
00r	.	00r	.	00r	.	00r	.	2.c\	no-	2.e-\	no-	2.g\	no-	4.cc\	no-	.	2ee-\	.	2gg\	.	4g/	4.cc\	4.cc\	2gg\	.
.	.	.	.	.	.	.	.	.	.	.	.	.	.	.	.	.	.	.	.	.	4r	.	.	.	.
.	.	.	.	.	.	.	.	.	.	.	.	.	.	8dd\	.	.	.	.	.	.	.	8dd\	8dd\	.	.
.	.	.	.	.	.	.	.	.	.	.	.	.	.	8ff\L	.	.	4r	.	4r	.	4r	8ff\L	8ff\L	4r	.
.	.	.	.	.	.	.	.	.	.	.	.	.	.	8ee-\J	.	.	.	.	.	.	.	8ee-\	8ee-\	.	.
!	!	!	!	!	!	!	!	!	!	!	!	!	!	!	!	!	!	!	!	!	!LO:SIC:v:s=8a-/L	!	!	!	!
.	.	.	.	.	.	.	.	4A-X\	-bis	4c\	-bis	4f\	-bis	8cc\L	-bis	.	4ff\	.	4aa-\	.	8a/L	8cc\	8cc\	4aa-\	.
.	.	.	.	.	.	.	.	.	.	.	.	.	.	8a-\J	.	.	.	.	.	.	8f/J	8a-X\J	8a-X\J	.	.
!	!	!	!	!	!	!	!	!	!	!	!	!	!	!	!	!	!	!	!	!	!	!	!LO:LB:g=original	!	!
=111	=111	=111	=111	=111	=111	=111	=111	=111	=111	=111	=111	=111	=111	=111	=111	=111	=111	=111	=111	=111	=111	=111	=111	=111	=111
.	.	.	.	.	.	.	.	2B-\	pa-	(2B-\	pa-	(2e-\	pa-	(2g/	pa-	.	2ee-\	.	2gg\	.	2e-/	2g/	2g/	2gg\	.
.	.	.	.	.	.	.	.	2BB-/	.	2A-\)	.	2d\)	.	2f/)	.	.	2b-/	.	2ff\	.	2d/	2f/	2f/	2ff\	.
!	!	!	!	!	!	!	!	!	!	!	!	!LO:LB:g=original	!	!	!	!	!	!	!	!	!LO:LB:g=original	!	!	!LO:LB:g=original	!
=112	=112	=112	=112	=112	=112	=112	=112	=112	=112	=112	=112	=112	=112	=112	=112	=112	=112	=112	=112	=112	=112	=112	=112	=112	=112
!	!	!	!	!	!	!	!	!	!	!	!	!	!	!	!	!	!	!LO:DY:a:t=pu	!	!	!	!	!	!	!
.	.	.	.	.	.	.	.	2E-\	-cem	2G/	-cem	2B-/	-cem	2e-/	-cem	.	2g/	p	2ee-T\	.	8e-\L	2e-/	2e-/	2ee-\	.
.	.	.	.	.	.	.	.	.	.	.	.	.	.	.	.	.	.	.	.	.	8b-\	.	.	.	.
.	.	.	.	.	.	.	.	.	.	.	.	.	.	.	.	.	.	.	.	.	8b-\	.	.	.	.
.	.	.	.	.	.	.	.	.	.	.	.	.	.	.	.	.	.	.	.	.	8b-\J	.	.	.	.
*	*	*	*	*	*	*	*	*	*	*	*	*	*	*	*	*	*	*	*	*	*tremolo	*	*	*	*
!	!	!	!	!	!	!	!	!	!	!	!	!	!	!	!	!	!	!	!	!	!LO:TX:a:t=....	!	!	!	!
.	.	.	.	.	.	.	.	2BB-/	pa-	2f\	pa-	2a-\	pa-	2dd\	pa-	.	2b-/	.	2ff\	.	8b-'\L	2dd\	2dd\	2ff\	.
.	.	.	.	.	.	.	.	.	.	.	.	.	.	.	.	.	.	.	.	.	8b-'\	.	.	.	.
.	.	.	.	.	.	.	.	.	.	.	.	.	.	.	.	.	.	.	.	.	8b-'\	.	.	.	.
.	.	.	.	.	.	.	.	.	.	.	.	.	.	.	.	.	.	.	.	.	8b-'\J	.	.	.	.
=113	=113	=113	=113	=113	=113	=113	=113	=113	=113	=113	=113	=113	=113	=113	=113	=113	=113	=113	=113	=113	=113	=113	=113	=113	=113
!	!	!	!	!	!	!	!	!	!	!	!	!	!	!	!	!	!	!	!	!	!LO:TX:a:t=....	!	!	!	!LO:DY:t=pio
.	.	.	.	.	.	.	.	2E-\	-cem	2e-\	-cem	2g\	-cem	2ee-\	-cem	.	2g/	.	2ee-\	.	8b-'\L	2ee-\	2ee-\	2ee-\	p
.	.	.	.	.	.	.	.	.	.	.	.	.	.	.	.	.	.	.	.	.	8b-'\	.	.	.	.
.	.	.	.	.	.	.	.	.	.	.	.	.	.	.	.	.	.	.	.	.	8b-'\	.	.	.	.
.	.	.	.	.	.	.	.	.	.	.	.	.	.	.	.	.	.	.	.	.	8b-'\J	.	.	.	.
*	*	*	*	*	*	*	*	*	*ij	*	*ij	*	*ij	*	*ij	*	*	*	*	*	*	*	*	*	*
!	!	!	!	!	!	!	!	!	!	!	!	!	!	!	!	!	!	!	!	!	!LO:TX:a:t=....	!	!	!	!
.	.	.	.	.	.	.	.	2BB-/	pa-	2f\	pa-	2a-\	pa-	2dd\	pa-	.	2b-/	.	2ff\	.	8b-'\L	2dd\	2dd\	2ff\	.
.	.	.	.	.	.	.	.	.	.	.	.	.	.	.	.	.	.	.	.	.	8b-'\	.	.	.	.
.	.	.	.	.	.	.	.	.	.	.	.	.	.	.	.	.	.	.	.	.	8b-'\	.	.	.	.
.	.	.	.	.	.	.	.	.	.	.	.	.	.	.	.	.	.	.	.	.	8b-'\J	.	.	.	.
=114	=114	=114	=114	=114	=114	=114	=114	=114	=114	=114	=114	=114	=114	=114	=114	=114	=114	=114	=114	=114	=114	=114	=114	=114	=114
!	!	!	!	!	!	!	!	!	!	!	!	!	!	!	!	!	!	!	!	!	!LO:TX:a:t=....	!	!	!	!
0r	.	0r	.	0r	.	0r	.	2E-\	-cem	2B-\	-cem	2g\	-cem	2ee-\	-cem	.	2g/	.	2ee-\	.	8b-'\L	2dd\	2ee-\	2ee-\	.
*	*	*	*	*	*	*	*	*	*Xij	*	*Xij	*	*Xij	*	*Xij	*	*	*	*	*	*	*	*	*	*
.	.	.	.	.	.	.	.	.	.	.	.	.	.	.	.	.	.	.	.	.	8b-'\	.	.	.	.
.	.	.	.	.	.	.	.	.	.	.	.	.	.	.	.	.	.	.	.	.	8b-'\	.	.	.	.
.	.	.	.	.	.	.	.	.	.	.	.	.	.	.	.	.	.	.	.	.	8b-'\J	.	.	.	.
!	!	!	!	!	!	!	!	!	!	!	!	!	!	!	!	!	!	!	!	!	!LO:TX:a:t=....	!	!	!	!
.	.	.	.	.	.	.	.	2E-\	pa-	2B-\	pa-	2g\	pa-	2ee-\	pa-	.	2g/	.	2ee-\	.	8b-'\L	2ee-\	2ee-\	2ee-\	.
.	.	.	.	.	.	.	.	.	.	.	.	.	.	.	.	.	.	.	.	.	8b-'\	.	.	.	.
.	.	.	.	.	.	.	.	.	.	.	.	.	.	.	.	.	.	.	.	.	8b-'\	.	.	.	.
.	.	.	.	.	.	.	.	.	.	.	.	.	.	.	.	.	.	.	.	.	8b-'\J	.	.	.	.
*	*	*	*	*	*	*	*	*	*	*	*	*	*	*	*	*	*	*	*	*	*Xtremolo	*	*	*	*
=115	=115	=115	=115	=115	=115	=115	=115	=115	=115	=115	=115	=115	=115	=115	=115	=115	=115	=115	=115	=115	=115	=115	=115	=115	=115
.	.	.	.	.	.	.	.	2E-\	-cem	2B-\	-cem	2g\	-cem	2ee-\	-cem	.	2g/	.	2ee-\	.	2b-\	2ee-\	2ee-\	2ee-\	.
!	!	!	!	!	!	!	!	!LO:TX:b:i:t=il Fine.	!	!	!	!	!	!	!	!	!	!	!	!	!	!	!	!	!
.	.	.	.	.	.	.	.	2r	.	2r	.	2r	.	2r	.	.	2r	.	2r	.	2r	2r	2r	2r	.
==	==	==	==	==	==	==	==	==	==	==	==	==	==	==	==	==	==	==	==	==	==	==	==	==	==
*-	*-	*-	*-	*-	*-	*-	*-	*-	*-	*-	*-	*-	*-	*-	*-	*-	*-	*-	*-	*-	*-	*-	*-	*-	*-
!!!system-decoration: [(g1)][(g2)][(g3)][(g4)]s14
!!!RDF**kern: > = above
!!!RDF**kern: < = below
!!!RDF**kern: | = vertical stroke
!!!RDF**kern: @ = marked note, color=grey
!!!ENC: Solarz Mateusz
!!!END: 2020-10-16
!!!ENC: Marta Lawrence
!!!END: 2021-01-19
